;Project 17K_logo
;Created by Estlcam version 11 build 11,231
;Machining time about 00:10:42 hours

G90
M03 S24000
G00 X0.0000 Y0.0000 Z0.0000
G00 Z2.0000


;No. 1: Part 1
G00 X25.2379 Y25.2379
G00 Z0.5000
G01 Z0.0000 F500 S24000
G01 Z-3.0000
G01 X26.5443 Y23.9545 F800
G01 X27.8761 Y22.6976
G01 X29.2329 Y21.4676
G01 X30.6140 Y20.2651
G01 X32.0190 Y19.0904
G01 X33.4472 Y17.9442
G01 X34.8982 Y16.8268
G01 X36.3712 Y15.7387
G01 X37.8657 Y14.6803
G01 X39.3811 Y13.6521
G01 X40.9168 Y12.6545
G01 X42.4722 Y11.6879
G01 X44.0467 Y10.7526
G01 X45.6396 Y9.8490
G01 X47.2502 Y8.9776
G01 X48.8780 Y8.1386
G01 X50.5223 Y7.3323
G01 X52.1825 Y6.5592
G01 X53.8577 Y5.8195
G01 X55.5475 Y5.1136
G01 X57.2511 Y4.4416
G01 X58.9678 Y3.8039
G01 X60.6969 Y3.2007
G01 X62.4378 Y2.6323
G01 X64.1897 Y2.0989
G01 X65.9519 Y1.6007
G01 X67.7238 Y1.1380
G01 X69.5046 Y0.7108
G01 X71.2936 Y0.3194
G01 X73.0900 Y-0.0361
G01 X74.8933 Y-0.3555
G01 X76.7026 Y-0.6387
G01 X78.5171 Y-0.8857
G01 X80.3363 Y-1.0961
G01 X82.1593 Y-1.2702
G01 X83.9855 Y-1.4076
G01 X85.8140 Y-1.5084
G01 X87.6442 Y-1.5726
G01 X89.4753 Y-1.6000
G01 X91.3066 Y-1.5908
G01 X93.1373 Y-1.5449
G01 X94.9668 Y-1.4623
G01 X96.7942 Y-1.3430
G01 X98.6189 Y-1.1872
G01 X100.3184 Y-1.0110
G01 X102.0143 Y-0.8031
G01 X103.7060 Y-0.5637
G01 X105.3930 Y-0.2926
G01 X107.0746 Y0.0098
G01 X108.7503 Y0.3436
G01 X110.4195 Y0.7086
G01 X112.0816 Y1.1047
G01 X113.7360 Y1.5317
G01 X115.3821 Y1.9895
G01 X117.0194 Y2.4780
G01 X118.6473 Y2.9969
G01 X120.2652 Y3.5461
G01 X121.8726 Y4.1255
G01 X123.4689 Y4.7347
G01 X125.0536 Y5.3736
G01 X126.6260 Y6.0420
G01 X128.1858 Y6.7395
G01 X129.7322 Y7.4661
G01 X131.2648 Y8.2214
G01 X132.7830 Y9.0052
G01 X134.2864 Y9.8172
G01 X135.7743 Y10.6571
G01 X137.2463 Y11.5246
G01 X138.7019 Y12.4194
G01 X140.1405 Y13.3413
G01 X141.5616 Y14.2898
G01 X142.9648 Y15.2647
G01 X144.3496 Y16.2655
G01 X145.7154 Y17.2921
G01 X147.0618 Y18.3440
G01 X148.3884 Y19.4208
G01 X149.6947 Y20.5222
G01 X150.9802 Y21.6477
G01 X152.2444 Y22.7971
G01 X153.4870 Y23.9699
G01 X154.7075 Y25.1656
G01 X155.9054 Y26.3839
G01 X157.0804 Y27.6244
G01 X158.2321 Y28.8865
G01 X159.3599 Y30.1700
G01 X160.4637 Y31.4742
G01 X161.5429 Y32.7988
G01 X162.5972 Y34.1434
G01 X163.6263 Y35.5074
G01 X164.6297 Y36.8903
G01 X165.6071 Y38.2917
G01 X166.5582 Y39.7112
G01 X167.5105 Y41.1896
G01 X168.4343 Y42.6861
G01 X169.3290 Y44.2000
G01 X170.1945 Y45.7309
G01 X171.0304 Y47.2782
G01 X171.8364 Y48.8412
G01 X172.6121 Y50.4195
G01 X173.3573 Y52.0124
G01 X174.0718 Y53.6194
G01 X174.7552 Y55.2398
G01 X175.4073 Y56.8730
G01 X176.0279 Y58.5185
G01 X176.6167 Y60.1756
G01 X177.1735 Y61.8437
G01 X177.6981 Y63.5223
G01 X178.1903 Y65.2106
G01 X178.6500 Y66.9081
G01 X179.0769 Y68.6141
G01 X179.4709 Y70.3280
G01 X179.8319 Y72.0492
G01 X180.1597 Y73.7770
G01 X180.4542 Y75.5107
G01 X180.7153 Y77.2499
G01 X180.9428 Y78.9937
G01 X181.1368 Y80.7416
G01 X181.2972 Y82.4929
G01 X181.4238 Y84.2469
G01 X181.5166 Y86.0031
G01 X181.5757 Y87.7607
G01 X181.6009 Y89.5191
G01 X181.5923 Y91.2777
G01 X181.5498 Y93.0358
G01 X181.4736 Y94.7928
G01 X181.3635 Y96.5479
G01 X181.2198 Y98.3007
G01 X181.0423 Y100.0503
G01 X180.8392 Y101.7468
G01 X180.6045 Y103.4392
G01 X180.3382 Y105.1269
G01 X180.0405 Y106.8094
G01 X179.7115 Y108.4860
G01 X179.3513 Y110.1562
G01 X178.9599 Y111.8194
G01 X178.5376 Y113.4750
G01 X178.0845 Y115.1224
G01 X177.6008 Y116.7611
G01 X177.0865 Y118.3905
G01 X176.5419 Y120.0100
G01 X175.9673 Y121.6190
G01 X175.3627 Y123.2171
G01 X174.7283 Y124.8036
G01 X174.0646 Y126.3780
G01 X173.3715 Y127.9397
G01 X172.6494 Y129.4882
G01 X171.8986 Y131.0230
G01 X171.1193 Y132.5436
G01 X170.3117 Y134.0493
G01 X169.4762 Y135.5397
G01 X168.6130 Y137.0142
G01 X167.7225 Y138.4724
G01 X166.8049 Y139.9137
G01 X165.8606 Y141.3376
G01 X164.8899 Y142.7437
G01 X163.8931 Y144.1314
G01 X162.8706 Y145.5003
G01 X161.8228 Y146.8499
G01 X160.7499 Y148.1797
G01 X159.6525 Y149.4892
G01 X158.5308 Y150.7780
G01 X157.3852 Y152.0457
G01 X156.2162 Y153.2918
G01 X155.0242 Y154.5159
G01 X153.8095 Y155.7175
G01 X152.5726 Y156.8963
G01 X151.3140 Y158.0517
G01 X150.0340 Y159.1835
G01 X148.7331 Y160.2912
G01 X147.4118 Y161.3745
G01 X146.0704 Y162.4329
G01 X144.7096 Y163.4661
G01 X143.3298 Y164.4737
G01 X141.9314 Y165.4554
G01 X140.5149 Y166.4109
G01 X139.0808 Y167.3398
G01 X137.6216 Y168.2478
G01 X136.1457 Y169.1282
G01 X134.6534 Y169.9808
G01 X133.1454 Y170.8052
G01 X131.6221 Y171.6010
G01 X130.0842 Y172.3681
G01 X128.5321 Y173.1062
G01 X126.9664 Y173.8149
G01 X125.3877 Y174.4941
G01 X123.7965 Y175.1435
G01 X122.1933 Y175.7629
G01 X120.5788 Y176.3520
G01 X118.9535 Y176.9107
G01 X117.3180 Y177.4388
G01 X115.6729 Y177.9360
G01 X114.0187 Y178.4022
G01 X112.3560 Y178.8372
G01 X110.6855 Y179.2409
G01 X109.0076 Y179.6131
G01 X107.3231 Y179.9538
G01 X105.6325 Y180.2627
G01 X103.9363 Y180.5397
G01 X102.2352 Y180.7849
G01 X100.5299 Y180.9980
G01 X98.8208 Y181.1790
G01 X97.1086 Y181.3279
G01 X95.3940 Y181.4446
G01 X93.6774 Y181.5290
G01 X91.9596 Y181.5812
G01 X90.2410 Y181.6010
G01 X88.5224 Y181.5886
G01 X86.8044 Y181.5438
G01 X85.0875 Y181.4668
G01 X83.3723 Y181.3575
G01 X81.6595 Y181.2160
G01 X79.9497 Y181.0423
G01 X78.2532 Y180.8392
G01 X76.5608 Y180.6045
G01 X74.8731 Y180.3382
G01 X73.1906 Y180.0405
G01 X71.5140 Y179.7115
G01 X69.8438 Y179.3513
G01 X68.1806 Y178.9599
G01 X66.5250 Y178.5376
G01 X64.8776 Y178.0845
G01 X63.2389 Y177.6008
G01 X61.6095 Y177.0865
G01 X59.9900 Y176.5419
G01 X58.3810 Y175.9673
G01 X56.7829 Y175.3627
G01 X55.1964 Y174.7283
G01 X53.6220 Y174.0646
G01 X52.0603 Y173.3715
G01 X50.5118 Y172.6494
G01 X48.9770 Y171.8986
G01 X47.4564 Y171.1193
G01 X45.9507 Y170.3117
G01 X44.4604 Y169.4762
G01 X42.9858 Y168.6130
G01 X41.5276 Y167.7225
G01 X40.0863 Y166.8049
G01 X38.6624 Y165.8606
G01 X37.2563 Y164.8899
G01 X35.8686 Y163.8931
G01 X34.4997 Y162.8706
G01 X33.1501 Y161.8228
G01 X31.8203 Y160.7499
G01 X30.5108 Y159.6525
G01 X29.2220 Y158.5308
G01 X27.9543 Y157.3852
G01 X26.7082 Y156.2162
G01 X25.4841 Y155.0242
G01 X24.2825 Y153.8095
G01 X23.1037 Y152.5726
G01 X21.9483 Y151.3140
G01 X20.8165 Y150.0340
G01 X19.7088 Y148.7331
G01 X18.6255 Y147.4118
G01 X17.5671 Y146.0704
G01 X16.5339 Y144.7096
G01 X15.5263 Y143.3298
G01 X14.5446 Y141.9314
G01 X13.5891 Y140.5149
G01 X12.6602 Y139.0808
G01 X11.7522 Y137.6216
G01 X10.8718 Y136.1457
G01 X10.0192 Y134.6534
G01 X9.1948 Y133.1454
G01 X8.3990 Y131.6221
G01 X7.6319 Y130.0842
G01 X6.8938 Y128.5321
G01 X6.1851 Y126.9664
G01 X5.5059 Y125.3877
G01 X4.8565 Y123.7965
G01 X4.2371 Y122.1933
G01 X3.6480 Y120.5788
G01 X3.0893 Y118.9535
G01 X2.5612 Y117.3180
G01 X2.0640 Y115.6729
G01 X1.5978 Y114.0187
G01 X1.1628 Y112.3560
G01 X0.7591 Y110.6855
G01 X0.3869 Y109.0076
G01 X0.0462 Y107.3231
G01 X-0.2627 Y105.6325
G01 X-0.5397 Y103.9363
G01 X-0.7849 Y102.2352
G01 X-0.9980 Y100.5299
G01 X-1.1790 Y98.8208
G01 X-1.3279 Y97.1086
G01 X-1.4446 Y95.3940
G01 X-1.5290 Y93.6774
G01 X-1.5812 Y91.9596
G01 X-1.6010 Y90.2410
G01 X-1.5886 Y88.5224
G01 X-1.5438 Y86.8044
G01 X-1.4668 Y85.0875
G01 X-1.3575 Y83.3723
G01 X-1.2160 Y81.6595
G01 X-1.0423 Y79.9497
G01 X-0.8392 Y78.2431
G01 X-0.6041 Y76.5406
G01 X-0.3369 Y74.8428
G01 X-0.0379 Y73.1503
G01 X0.2930 Y71.4638
G01 X0.6555 Y69.7838
G01 X1.0496 Y68.1109
G01 X1.4751 Y66.4458
G01 X1.9318 Y64.7889
G01 X2.4197 Y63.1409
G01 X2.9384 Y61.5024
G01 X3.4880 Y59.8740
G01 X4.0681 Y58.2562
G01 X4.6785 Y56.6496
G01 X5.3190 Y55.0547
G01 X5.9895 Y53.4722
G01 X6.6896 Y51.9026
G01 X7.4191 Y50.3465
G01 X8.1778 Y48.8043
G01 X8.9654 Y47.2767
G01 X9.7816 Y45.7642
G01 X10.6261 Y44.2673
G01 X11.4987 Y42.7866
G01 X12.3989 Y41.3226
G01 X13.3265 Y39.8758
G01 X14.2812 Y38.4467
G01 X15.2627 Y37.0358
G01 X16.2705 Y35.6436
G01 X17.3043 Y34.2706
G01 X18.3638 Y32.9174
G01 X19.4486 Y31.5843
G01 X20.5582 Y30.2719
G01 X21.6924 Y28.9806
G01 X22.8507 Y27.7108
G01 X24.0326 Y26.4631
G01 X25.2379 Y25.2379
G01 Z-6.0000 F500
G01 X26.5443 Y23.9545 F800
G01 X27.8761 Y22.6976
G01 X29.2329 Y21.4676
G01 X30.6140 Y20.2651
G01 X32.0190 Y19.0904
G01 X33.4472 Y17.9442
G01 X34.8982 Y16.8268
G01 X36.3712 Y15.7387
G01 X37.8657 Y14.6803
G01 X39.3811 Y13.6521
G01 X40.9168 Y12.6545
G01 X42.4722 Y11.6879
G01 X44.0467 Y10.7526
G01 X45.6396 Y9.8490
G01 X47.2502 Y8.9776
G01 X48.8780 Y8.1386
G01 X50.5223 Y7.3323
G01 X52.1825 Y6.5592
G01 X53.8577 Y5.8195
G01 X55.5475 Y5.1136
G01 X57.2511 Y4.4416
G01 X58.9678 Y3.8039
G01 X60.6969 Y3.2007
G01 X62.4378 Y2.6323
G01 X64.1897 Y2.0989
G01 X65.9519 Y1.6007
G01 X67.7238 Y1.1380
G01 X69.5046 Y0.7108
G01 X71.2936 Y0.3194
G01 X73.0900 Y-0.0361
G01 X74.8933 Y-0.3555
G01 X76.7026 Y-0.6387
G01 X78.5171 Y-0.8857
G01 X80.3363 Y-1.0961
G01 X82.1593 Y-1.2702
G01 X83.9855 Y-1.4076
G01 X85.8140 Y-1.5084
G01 X87.6442 Y-1.5726
G01 X89.4753 Y-1.6000
G01 X91.3066 Y-1.5908
G01 X93.1373 Y-1.5449
G01 X94.9668 Y-1.4623
G01 X96.7942 Y-1.3430
G01 X98.6189 Y-1.1872
G01 X100.3184 Y-1.0110
G01 X102.0143 Y-0.8031
G01 X103.7060 Y-0.5637
G01 X105.3930 Y-0.2926
G01 X107.0746 Y0.0098
G01 X108.7503 Y0.3436
G01 X110.4195 Y0.7086
G01 X112.0816 Y1.1047
G01 X113.7360 Y1.5317
G01 X115.3821 Y1.9895
G01 X117.0194 Y2.4780
G01 X118.6473 Y2.9969
G01 X120.2652 Y3.5461
G01 X121.8726 Y4.1255
G01 X123.4689 Y4.7347
G01 X125.0536 Y5.3736
G01 X126.6260 Y6.0420
G01 X128.1858 Y6.7395
G01 X129.7322 Y7.4661
G01 X131.2648 Y8.2214
G01 X132.7830 Y9.0052
G01 X134.2864 Y9.8172
G01 X135.7743 Y10.6571
G01 X137.2463 Y11.5246
G01 X138.7019 Y12.4194
G01 X140.1405 Y13.3413
G01 X141.5616 Y14.2898
G01 X142.9648 Y15.2647
G01 X144.3496 Y16.2655
G01 X145.7154 Y17.2921
G01 X147.0618 Y18.3440
G01 X148.3884 Y19.4208
G01 X149.6947 Y20.5222
G01 X150.9802 Y21.6477
G01 X152.2444 Y22.7971
G01 X153.4870 Y23.9699
G01 X154.7075 Y25.1656
G01 X155.9054 Y26.3839
G01 X157.0804 Y27.6244
G01 X158.2321 Y28.8865
G01 X159.3599 Y30.1700
G01 X160.4637 Y31.4742
G01 X161.5429 Y32.7988
G01 X162.5972 Y34.1434
G01 X163.6263 Y35.5074
G01 X164.6297 Y36.8903
G01 X165.6071 Y38.2917
G01 X166.5582 Y39.7112
G01 X167.5105 Y41.1896
G01 X168.4343 Y42.6861
G01 X169.3290 Y44.2000
G01 X170.1945 Y45.7309
G01 X171.0304 Y47.2782
G01 X171.8364 Y48.8412
G01 X172.6121 Y50.4195
G01 X173.3573 Y52.0124
G01 X174.0718 Y53.6194
G01 X174.7552 Y55.2398
G01 X175.4073 Y56.8730
G01 X176.0279 Y58.5185
G01 X176.6167 Y60.1756
G01 X177.1735 Y61.8437
G01 X177.6981 Y63.5223
G01 X178.1903 Y65.2106
G01 X178.6500 Y66.9081
G01 X179.0769 Y68.6141
G01 X179.4709 Y70.3280
G01 X179.8319 Y72.0492
G01 X180.1597 Y73.7770
G01 X180.4542 Y75.5107
G01 X180.7153 Y77.2499
G01 X180.9428 Y78.9937
G01 X181.1368 Y80.7416
G01 X181.2972 Y82.4929
G01 X181.4238 Y84.2469
G01 X181.5166 Y86.0031
G01 X181.5757 Y87.7607
G01 X181.6009 Y89.5191
G01 X181.5923 Y91.2777
G01 X181.5498 Y93.0358
G01 X181.4736 Y94.7928
G01 X181.3635 Y96.5479
G01 X181.2198 Y98.3007
G01 X181.0423 Y100.0503
G01 X180.8392 Y101.7468
G01 X180.6045 Y103.4392
G01 X180.3382 Y105.1269
G01 X180.0405 Y106.8094
G01 X179.7115 Y108.4860
G01 X179.3513 Y110.1562
G01 X178.9599 Y111.8194
G01 X178.5376 Y113.4750
G01 X178.0845 Y115.1224
G01 X177.6008 Y116.7611
G01 X177.0865 Y118.3905
G01 X176.5419 Y120.0100
G01 X175.9673 Y121.6190
G01 X175.3627 Y123.2171
G01 X174.7283 Y124.8036
G01 X174.0646 Y126.3780
G01 X173.3715 Y127.9397
G01 X172.6494 Y129.4882
G01 X171.8986 Y131.0230
G01 X171.1193 Y132.5436
G01 X170.3117 Y134.0493
G01 X169.4762 Y135.5397
G01 X168.6130 Y137.0142
G01 X167.7225 Y138.4724
G01 X166.8049 Y139.9137
G01 X165.8606 Y141.3376
G01 X164.8899 Y142.7437
G01 X163.8931 Y144.1314
G01 X162.8706 Y145.5003
G01 X161.8228 Y146.8499
G01 X160.7499 Y148.1797
G01 X159.6525 Y149.4892
G01 X158.5308 Y150.7780
G01 X157.3852 Y152.0457
G01 X156.2162 Y153.2918
G01 X155.0242 Y154.5159
G01 X153.8095 Y155.7175
G01 X152.5726 Y156.8963
G01 X151.3140 Y158.0517
G01 X150.0340 Y159.1835
G01 X148.7331 Y160.2912
G01 X147.4118 Y161.3745
G01 X146.0704 Y162.4329
G01 X144.7096 Y163.4661
G01 X143.3298 Y164.4737
G01 X141.9314 Y165.4554
G01 X140.5149 Y166.4109
G01 X139.0808 Y167.3398
G01 X137.6216 Y168.2478
G01 X136.1457 Y169.1282
G01 X134.6534 Y169.9808
G01 X133.1454 Y170.8052
G01 X131.6221 Y171.6010
G01 X130.0842 Y172.3681
G01 X128.5321 Y173.1062
G01 X126.9664 Y173.8149
G01 X125.3877 Y174.4941
G01 X123.7965 Y175.1435
G01 X122.1933 Y175.7629
G01 X120.5788 Y176.3520
G01 X118.9535 Y176.9107
G01 X117.3180 Y177.4388
G01 X115.6729 Y177.9360
G01 X114.0187 Y178.4022
G01 X112.3560 Y178.8372
G01 X110.6855 Y179.2409
G01 X109.0076 Y179.6131
G01 X107.3231 Y179.9538
G01 X105.6325 Y180.2627
G01 X103.9363 Y180.5397
G01 X102.2352 Y180.7849
G01 X100.5299 Y180.9980
G01 X98.8208 Y181.1790
G01 X97.1086 Y181.3279
G01 X95.3940 Y181.4446
G01 X93.6774 Y181.5290
G01 X91.9596 Y181.5812
G01 X90.2410 Y181.6010
G01 X88.5224 Y181.5886
G01 X86.8044 Y181.5438
G01 X85.0875 Y181.4668
G01 X83.3723 Y181.3575
G01 X81.6595 Y181.2160
G01 X79.9497 Y181.0423
G01 X78.2532 Y180.8392
G01 X76.5608 Y180.6045
G01 X74.8731 Y180.3382
G01 X73.1906 Y180.0405
G01 X71.5140 Y179.7115
G01 X69.8438 Y179.3513
G01 X68.1806 Y178.9599
G01 X66.5250 Y178.5376
G01 X64.8776 Y178.0845
G01 X63.2389 Y177.6008
G01 X61.6095 Y177.0865
G01 X59.9900 Y176.5419
G01 X58.3810 Y175.9673
G01 X56.7829 Y175.3627
G01 X55.1964 Y174.7283
G01 X53.6220 Y174.0646
G01 X52.0603 Y173.3715
G01 X50.5118 Y172.6494
G01 X48.9770 Y171.8986
G01 X47.4564 Y171.1193
G01 X45.9507 Y170.3117
G01 X44.4604 Y169.4762
G01 X42.9858 Y168.6130
G01 X41.5276 Y167.7225
G01 X40.0863 Y166.8049
G01 X38.6624 Y165.8606
G01 X37.2563 Y164.8899
G01 X35.8686 Y163.8931
G01 X34.4997 Y162.8706
G01 X33.1501 Y161.8228
G01 X31.8203 Y160.7499
G01 X30.5108 Y159.6525
G01 X29.2220 Y158.5308
G01 X27.9543 Y157.3852
G01 X26.7082 Y156.2162
G01 X25.4841 Y155.0242
G01 X24.2825 Y153.8095
G01 X23.1037 Y152.5726
G01 X21.9483 Y151.3140
G01 X20.8165 Y150.0340
G01 X19.7088 Y148.7331
G01 X18.6255 Y147.4118
G01 X17.5671 Y146.0704
G01 X16.5339 Y144.7096
G01 X15.5263 Y143.3298
G01 X14.5446 Y141.9314
G01 X13.5891 Y140.5149
G01 X12.6602 Y139.0808
G01 X11.7522 Y137.6216
G01 X10.8718 Y136.1457
G01 X10.0192 Y134.6534
G01 X9.1948 Y133.1454
G01 X8.3990 Y131.6221
G01 X7.6319 Y130.0842
G01 X6.8938 Y128.5321
G01 X6.1851 Y126.9664
G01 X5.5059 Y125.3877
G01 X4.8565 Y123.7965
G01 X4.2371 Y122.1933
G01 X3.6480 Y120.5788
G01 X3.0893 Y118.9535
G01 X2.5612 Y117.3180
G01 X2.0640 Y115.6729
G01 X1.5978 Y114.0187
G01 X1.1628 Y112.3560
G01 X0.7591 Y110.6855
G01 X0.3869 Y109.0076
G01 X0.0462 Y107.3231
G01 X-0.2627 Y105.6325
G01 X-0.5397 Y103.9363
G01 X-0.7849 Y102.2352
G01 X-0.9980 Y100.5299
G01 X-1.1790 Y98.8208
G01 X-1.3279 Y97.1086
G01 X-1.4446 Y95.3940
G01 X-1.5290 Y93.6774
G01 X-1.5812 Y91.9596
G01 X-1.6010 Y90.2410
G01 X-1.5886 Y88.5224
G01 X-1.5438 Y86.8044
G01 X-1.4668 Y85.0875
G01 X-1.3575 Y83.3723
G01 X-1.2160 Y81.6595
G01 X-1.0423 Y79.9497
G01 X-0.8392 Y78.2431
G01 X-0.6041 Y76.5406
G01 X-0.3369 Y74.8428
G01 X-0.0379 Y73.1503
G01 X0.2930 Y71.4638
G01 X0.6555 Y69.7838
G01 X1.0496 Y68.1109
G01 X1.4751 Y66.4458
G01 X1.9318 Y64.7889
G01 X2.4197 Y63.1409
G01 X2.9384 Y61.5024
G01 X3.4880 Y59.8740
G01 X4.0681 Y58.2562
G01 X4.6785 Y56.6496
G01 X5.3190 Y55.0547
G01 X5.9895 Y53.4722
G01 X6.6896 Y51.9026
G01 X7.4191 Y50.3465
G01 X8.1778 Y48.8043
G01 X8.9654 Y47.2767
G01 X9.7816 Y45.7642
G01 X10.6261 Y44.2673
G01 X11.4987 Y42.7866
G01 X12.3989 Y41.3226
G01 X13.3265 Y39.8758
G01 X14.2812 Y38.4467
G01 X15.2627 Y37.0358
G01 X16.2705 Y35.6436
G01 X17.3043 Y34.2706
G01 X18.3638 Y32.9174
G01 X19.4486 Y31.5843
G01 X20.5582 Y30.2719
G01 X21.6924 Y28.9806
G01 X22.8507 Y27.7108
G01 X24.0326 Y26.4631
G01 X25.2379 Y25.2379
G01 Z-9.0000 F500
G01 X26.5443 Y23.9545 F800
G01 X27.8761 Y22.6976
G01 X29.2329 Y21.4676
G01 X30.6140 Y20.2651
G01 X32.0190 Y19.0904
G01 X33.4472 Y17.9442
G01 X34.8982 Y16.8268
G01 X36.3712 Y15.7387
G01 X37.8657 Y14.6803
G01 X39.3811 Y13.6521
G01 X40.9168 Y12.6545
G01 X42.4722 Y11.6879
G01 X44.0467 Y10.7526
G01 X45.6396 Y9.8490
G01 X47.2502 Y8.9776
G01 X48.8780 Y8.1386
G01 X50.5223 Y7.3323
G01 X52.1825 Y6.5592
G01 X53.8577 Y5.8195
G01 X55.5475 Y5.1136
G01 X57.2511 Y4.4416
G01 X58.9678 Y3.8039
G01 X60.6969 Y3.2007
G01 X62.4378 Y2.6323
G01 X64.1897 Y2.0989
G01 X65.9519 Y1.6007
G01 X67.7238 Y1.1380
G01 X69.5046 Y0.7108
G01 X71.2936 Y0.3194
G01 X73.0900 Y-0.0361
G01 X74.8933 Y-0.3555
G01 X76.7026 Y-0.6387
G01 X78.5171 Y-0.8857
G01 X80.3363 Y-1.0961
G01 X82.1593 Y-1.2702
G01 X83.9855 Y-1.4076
G01 X85.8140 Y-1.5084
G01 X87.6442 Y-1.5726
G01 X89.4753 Y-1.6000
G01 X91.3066 Y-1.5908
G01 X93.1373 Y-1.5449
G01 X94.9668 Y-1.4623
G01 X96.7942 Y-1.3430
G01 X98.6189 Y-1.1872
G01 X100.3184 Y-1.0110
G01 X102.0143 Y-0.8031
G01 X103.7060 Y-0.5637
G01 X105.3930 Y-0.2926
G01 X107.0746 Y0.0098
G01 X108.7503 Y0.3436
G01 X110.4195 Y0.7086
G01 X112.0816 Y1.1047
G01 X113.7360 Y1.5317
G01 X115.3821 Y1.9895
G01 X117.0194 Y2.4780
G01 X118.6473 Y2.9969
G01 X120.2652 Y3.5461
G01 X121.8726 Y4.1255
G01 X123.4689 Y4.7347
G01 X125.0536 Y5.3736
G01 X126.6260 Y6.0420
G01 X128.1858 Y6.7395
G01 X129.7322 Y7.4661
G01 X131.2648 Y8.2214
G01 X132.7830 Y9.0052
G01 X134.2864 Y9.8172
G01 X135.7743 Y10.6571
G01 X137.2463 Y11.5246
G01 X138.7019 Y12.4194
G01 X140.1405 Y13.3413
G01 X141.5616 Y14.2898
G01 X142.9648 Y15.2647
G01 X144.3496 Y16.2655
G01 X145.7154 Y17.2921
G01 X147.0618 Y18.3440
G01 X148.3884 Y19.4208
G01 X149.6947 Y20.5222
G01 X150.9802 Y21.6477
G01 X152.2444 Y22.7971
G01 X153.4870 Y23.9699
G01 X154.7075 Y25.1656
G01 X155.9054 Y26.3839
G01 X157.0804 Y27.6244
G01 X158.2321 Y28.8865
G01 X159.3599 Y30.1700
G01 X160.4637 Y31.4742
G01 X161.5429 Y32.7988
G01 X162.5972 Y34.1434
G01 X163.6263 Y35.5074
G01 X164.6297 Y36.8903
G01 X165.6071 Y38.2917
G01 X166.5582 Y39.7112
G01 X167.5105 Y41.1896
G01 X168.4343 Y42.6861
G01 X169.3290 Y44.2000
G01 X170.1945 Y45.7309
G01 X171.0304 Y47.2782
G01 X171.8364 Y48.8412
G01 X172.6121 Y50.4195
G01 X173.3573 Y52.0124
G01 X174.0718 Y53.6194
G01 X174.7552 Y55.2398
G01 X175.4073 Y56.8730
G01 X176.0279 Y58.5185
G01 X176.6167 Y60.1756
G01 X177.1735 Y61.8437
G01 X177.6981 Y63.5223
G01 X178.1903 Y65.2106
G01 X178.6500 Y66.9081
G01 X179.0769 Y68.6141
G01 X179.4709 Y70.3280
G01 X179.8319 Y72.0492
G01 X180.1597 Y73.7770
G01 X180.4542 Y75.5107
G01 X180.7153 Y77.2499
G01 X180.9428 Y78.9937
G01 X181.1368 Y80.7416
G01 X181.2972 Y82.4929
G01 X181.4238 Y84.2469
G01 X181.5166 Y86.0031
G01 X181.5757 Y87.7607
G01 X181.6009 Y89.5191
G01 X181.5923 Y91.2777
G01 X181.5498 Y93.0358
G01 X181.4736 Y94.7928
G01 X181.3635 Y96.5479
G01 X181.2198 Y98.3007
G01 X181.0423 Y100.0503
G01 X180.8392 Y101.7468
G01 X180.6045 Y103.4392
G01 X180.3382 Y105.1269
G01 X180.0405 Y106.8094
G01 X179.7115 Y108.4860
G01 X179.3513 Y110.1562
G01 X178.9599 Y111.8194
G01 X178.5376 Y113.4750
G01 X178.0845 Y115.1224
G01 X177.6008 Y116.7611
G01 X177.0865 Y118.3905
G01 X176.5419 Y120.0100
G01 X175.9673 Y121.6190
G01 X175.3627 Y123.2171
G01 X174.7283 Y124.8036
G01 X174.0646 Y126.3780
G01 X173.3715 Y127.9397
G01 X172.6494 Y129.4882
G01 X171.8986 Y131.0230
G01 X171.1193 Y132.5436
G01 X170.3117 Y134.0493
G01 X169.4762 Y135.5397
G01 X168.6130 Y137.0142
G01 X167.7225 Y138.4724
G01 X166.8049 Y139.9137
G01 X165.8606 Y141.3376
G01 X164.8899 Y142.7437
G01 X163.8931 Y144.1314
G01 X162.8706 Y145.5003
G01 X161.8228 Y146.8499
G01 X160.7499 Y148.1797
G01 X159.6525 Y149.4892
G01 X158.5308 Y150.7780
G01 X157.3852 Y152.0457
G01 X156.2162 Y153.2918
G01 X155.0242 Y154.5159
G01 X153.8095 Y155.7175
G01 X152.5726 Y156.8963
G01 X151.3140 Y158.0517
G01 X150.0340 Y159.1835
G01 X148.7331 Y160.2912
G01 X147.4118 Y161.3745
G01 X146.0704 Y162.4329
G01 X144.7096 Y163.4661
G01 X143.3298 Y164.4737
G01 X141.9314 Y165.4554
G01 X140.5149 Y166.4109
G01 X139.0808 Y167.3398
G01 X137.6216 Y168.2478
G01 X136.1457 Y169.1282
G01 X134.6534 Y169.9808
G01 X133.1454 Y170.8052
G01 X131.6221 Y171.6010
G01 X130.0842 Y172.3681
G01 X128.5321 Y173.1062
G01 X126.9664 Y173.8149
G01 X125.3877 Y174.4941
G01 X123.7965 Y175.1435
G01 X122.1933 Y175.7629
G01 X120.5788 Y176.3520
G01 X118.9535 Y176.9107
G01 X117.3180 Y177.4388
G01 X115.6729 Y177.9360
G01 X114.0187 Y178.4022
G01 X112.3560 Y178.8372
G01 X110.6855 Y179.2409
G01 X109.0076 Y179.6131
G01 X107.3231 Y179.9538
G01 X105.6325 Y180.2627
G01 X103.9363 Y180.5397
G01 X102.2352 Y180.7849
G01 X100.5299 Y180.9980
G01 X98.8208 Y181.1790
G01 X97.1086 Y181.3279
G01 X95.3940 Y181.4446
G01 X93.6774 Y181.5290
G01 X91.9596 Y181.5812
G01 X90.2410 Y181.6010
G01 X88.5224 Y181.5886
G01 X86.8044 Y181.5438
G01 X85.0875 Y181.4668
G01 X83.3723 Y181.3575
G01 X81.6595 Y181.2160
G01 X79.9497 Y181.0423
G01 X78.2532 Y180.8392
G01 X76.5608 Y180.6045
G01 X74.8731 Y180.3382
G01 X73.1906 Y180.0405
G01 X71.5140 Y179.7115
G01 X69.8438 Y179.3513
G01 X68.1806 Y178.9599
G01 X66.5250 Y178.5376
G01 X64.8776 Y178.0845
G01 X63.2389 Y177.6008
G01 X61.6095 Y177.0865
G01 X59.9900 Y176.5419
G01 X58.3810 Y175.9673
G01 X56.7829 Y175.3627
G01 X55.1964 Y174.7283
G01 X53.6220 Y174.0646
G01 X52.0603 Y173.3715
G01 X50.5118 Y172.6494
G01 X48.9770 Y171.8986
G01 X47.4564 Y171.1193
G01 X45.9507 Y170.3117
G01 X44.4604 Y169.4762
G01 X42.9858 Y168.6130
G01 X41.5276 Y167.7225
G01 X40.0863 Y166.8049
G01 X38.6624 Y165.8606
G01 X37.2563 Y164.8899
G01 X35.8686 Y163.8931
G01 X34.4997 Y162.8706
G01 X33.1501 Y161.8228
G01 X31.8203 Y160.7499
G01 X30.5108 Y159.6525
G01 X29.2220 Y158.5308
G01 X27.9543 Y157.3852
G01 X26.7082 Y156.2162
G01 X25.4841 Y155.0242
G01 X24.2825 Y153.8095
G01 X23.1037 Y152.5726
G01 X21.9483 Y151.3140
G01 X20.8165 Y150.0340
G01 X19.7088 Y148.7331
G01 X18.6255 Y147.4118
G01 X17.5671 Y146.0704
G01 X16.5339 Y144.7096
G01 X15.5263 Y143.3298
G01 X14.5446 Y141.9314
G01 X13.5891 Y140.5149
G01 X12.6602 Y139.0808
G01 X11.7522 Y137.6216
G01 X10.8718 Y136.1457
G01 X10.0192 Y134.6534
G01 X9.1948 Y133.1454
G01 X8.3990 Y131.6221
G01 X7.6319 Y130.0842
G01 X6.8938 Y128.5321
G01 X6.1851 Y126.9664
G01 X5.5059 Y125.3877
G01 X4.8565 Y123.7965
G01 X4.2371 Y122.1933
G01 X3.6480 Y120.5788
G01 X3.0893 Y118.9535
G01 X2.5612 Y117.3180
G01 X2.0640 Y115.6729
G01 X1.5978 Y114.0187
G01 X1.1628 Y112.3560
G01 X0.7591 Y110.6855
G01 X0.3869 Y109.0076
G01 X0.0462 Y107.3231
G01 X-0.2627 Y105.6325
G01 X-0.5397 Y103.9363
G01 X-0.7849 Y102.2352
G01 X-0.9980 Y100.5299
G01 X-1.1790 Y98.8208
G01 X-1.3279 Y97.1086
G01 X-1.4446 Y95.3940
G01 X-1.5290 Y93.6774
G01 X-1.5812 Y91.9596
G01 X-1.6010 Y90.2410
G01 X-1.5886 Y88.5224
G01 X-1.5438 Y86.8044
G01 X-1.4668 Y85.0875
G01 X-1.3575 Y83.3723
G01 X-1.2160 Y81.6595
G01 X-1.0423 Y79.9497
G01 X-0.8392 Y78.2431
G01 X-0.6041 Y76.5406
G01 X-0.3369 Y74.8428
G01 X-0.0379 Y73.1503
G01 X0.2930 Y71.4638
G01 X0.6555 Y69.7838
G01 X1.0496 Y68.1109
G01 X1.4751 Y66.4458
G01 X1.9318 Y64.7889
G01 X2.4197 Y63.1409
G01 X2.9384 Y61.5024
G01 X3.4880 Y59.8740
G01 X4.0681 Y58.2562
G01 X4.6785 Y56.6496
G01 X5.3190 Y55.0547
G01 X5.9895 Y53.4722
G01 X6.6896 Y51.9026
G01 X7.4191 Y50.3465
G01 X8.1778 Y48.8043
G01 X8.9654 Y47.2767
G01 X9.7816 Y45.7642
G01 X10.6261 Y44.2673
G01 X11.4987 Y42.7866
G01 X12.3989 Y41.3226
G01 X13.3265 Y39.8758
G01 X14.2812 Y38.4467
G01 X15.2627 Y37.0358
G01 X16.2705 Y35.6436
G01 X17.3043 Y34.2706
G01 X18.3638 Y32.9174
G01 X19.4486 Y31.5843
G01 X20.5582 Y30.2719
G01 X21.6924 Y28.9806
G01 X22.8507 Y27.7108
G01 X24.0326 Y26.4631
G01 X25.2379 Y25.2379
G01 Z-12.0000 F500
G01 X26.5443 Y23.9545 F800
G01 X27.8761 Y22.6976
G01 X29.2329 Y21.4676
G01 X30.6140 Y20.2651
G01 X32.0190 Y19.0904
G01 X33.4472 Y17.9442
G01 X34.8982 Y16.8268
G01 X36.3712 Y15.7387
G01 X37.8657 Y14.6803
G01 X39.3811 Y13.6521
G01 X40.9168 Y12.6545
G01 X42.4722 Y11.6879
G01 X44.0467 Y10.7526
G01 X45.6396 Y9.8490
G01 X47.2502 Y8.9776
G01 X48.8780 Y8.1386
G01 X50.5223 Y7.3323
G01 X52.1825 Y6.5592
G01 X53.8577 Y5.8195
G01 X55.5475 Y5.1136
G01 X57.2511 Y4.4416
G01 X58.9678 Y3.8039
G01 X60.6969 Y3.2007
G01 X62.4378 Y2.6323
G01 X64.1897 Y2.0989
G01 X65.9519 Y1.6007
G01 X67.7238 Y1.1380
G01 X69.5046 Y0.7108
G01 X71.2936 Y0.3194
G01 X73.0900 Y-0.0361
G01 X74.8933 Y-0.3555
G01 X76.7026 Y-0.6387
G01 X78.5171 Y-0.8857
G01 X80.3363 Y-1.0961
G01 X82.1593 Y-1.2702
G01 X83.9855 Y-1.4076
G01 X85.8140 Y-1.5084
G01 X87.6442 Y-1.5726
G01 X89.4753 Y-1.6000
G01 X91.3066 Y-1.5908
G01 X93.1373 Y-1.5449
G01 X94.9668 Y-1.4623
G01 X96.7942 Y-1.3430
G01 X98.6189 Y-1.1872
G01 X100.3184 Y-1.0110
G01 X102.0143 Y-0.8031
G01 X103.7060 Y-0.5637
G01 X105.3930 Y-0.2926
G01 X107.0746 Y0.0098
G01 X108.7503 Y0.3436
G01 X110.4195 Y0.7086
G01 X112.0816 Y1.1047
G01 X113.7360 Y1.5317
G01 X115.3821 Y1.9895
G01 X117.0194 Y2.4780
G01 X118.6473 Y2.9969
G01 X120.2652 Y3.5461
G01 X121.8726 Y4.1255
G01 X123.4689 Y4.7347
G01 X125.0536 Y5.3736
G01 X126.6260 Y6.0420
G01 X128.1858 Y6.7395
G01 X129.7322 Y7.4661
G01 X131.2648 Y8.2214
G01 X132.7830 Y9.0052
G01 X134.2864 Y9.8172
G01 X135.7743 Y10.6571
G01 X137.2463 Y11.5246
G01 X138.7019 Y12.4194
G01 X140.1405 Y13.3413
G01 X141.5616 Y14.2898
G01 X142.9648 Y15.2647
G01 X144.3496 Y16.2655
G01 X145.7154 Y17.2921
G01 X147.0618 Y18.3440
G01 X148.3884 Y19.4208
G01 X149.6947 Y20.5222
G01 X150.9802 Y21.6477
G01 X152.2444 Y22.7971
G01 X153.4870 Y23.9699
G01 X154.7075 Y25.1656
G01 X155.9054 Y26.3839
G01 X157.0804 Y27.6244
G01 X158.2321 Y28.8865
G01 X159.3599 Y30.1700
G01 X160.4637 Y31.4742
G01 X161.5429 Y32.7988
G01 X162.5972 Y34.1434
G01 X163.6263 Y35.5074
G01 X164.6297 Y36.8903
G01 X165.6071 Y38.2917
G01 X166.5582 Y39.7112
G01 X167.5105 Y41.1896
G01 X168.4343 Y42.6861
G01 X169.3290 Y44.2000
G01 X170.1945 Y45.7309
G01 X171.0304 Y47.2782
G01 X171.8364 Y48.8412
G01 X172.6121 Y50.4195
G01 X173.3573 Y52.0124
G01 X174.0718 Y53.6194
G01 X174.7552 Y55.2398
G01 X175.4073 Y56.8730
G01 X176.0279 Y58.5185
G01 X176.6167 Y60.1756
G01 X177.1735 Y61.8437
G01 X177.6981 Y63.5223
G01 X178.1903 Y65.2106
G01 X178.6500 Y66.9081
G01 X179.0769 Y68.6141
G01 X179.4709 Y70.3280
G01 X179.8319 Y72.0492
G01 X180.1597 Y73.7770
G01 X180.4542 Y75.5107
G01 X180.7153 Y77.2499
G01 X180.9428 Y78.9937
G01 X181.1368 Y80.7416
G01 X181.2972 Y82.4929
G01 X181.4238 Y84.2469
G01 X181.5166 Y86.0031
G01 X181.5757 Y87.7607
G01 X181.6009 Y89.5191
G01 X181.5923 Y91.2777
G01 X181.5498 Y93.0358
G01 X181.4736 Y94.7928
G01 X181.3635 Y96.5479
G01 X181.2198 Y98.3007
G01 X181.0423 Y100.0503
G01 X180.8392 Y101.7468
G01 X180.6045 Y103.4392
G01 X180.3382 Y105.1269
G01 X180.0405 Y106.8094
G01 X179.7115 Y108.4860
G01 X179.3513 Y110.1562
G01 X178.9599 Y111.8194
G01 X178.5376 Y113.4750
G01 X178.0845 Y115.1224
G01 X177.6008 Y116.7611
G01 X177.0865 Y118.3905
G01 X176.5419 Y120.0100
G01 X175.9673 Y121.6190
G01 X175.3627 Y123.2171
G01 X174.7283 Y124.8036
G01 X174.0646 Y126.3780
G01 X173.3715 Y127.9397
G01 X172.6494 Y129.4882
G01 X171.8986 Y131.0230
G01 X171.1193 Y132.5436
G01 X170.3117 Y134.0493
G01 X169.4762 Y135.5397
G01 X168.6130 Y137.0142
G01 X167.7225 Y138.4724
G01 X166.8049 Y139.9137
G01 X165.8606 Y141.3376
G01 X164.8899 Y142.7437
G01 X163.8931 Y144.1314
G01 X162.8706 Y145.5003
G01 X161.8228 Y146.8499
G01 X160.7499 Y148.1797
G01 X159.6525 Y149.4892
G01 X158.5308 Y150.7780
G01 X157.3852 Y152.0457
G01 X156.2162 Y153.2918
G01 X155.0242 Y154.5159
G01 X153.8095 Y155.7175
G01 X152.5726 Y156.8963
G01 X151.3140 Y158.0517
G01 X150.0340 Y159.1835
G01 X148.7331 Y160.2912
G01 X147.4118 Y161.3745
G01 X146.0704 Y162.4329
G01 X144.7096 Y163.4661
G01 X143.3298 Y164.4737
G01 X141.9314 Y165.4554
G01 X140.5149 Y166.4109
G01 X139.0808 Y167.3398
G01 X137.6216 Y168.2478
G01 X136.1457 Y169.1282
G01 X134.6534 Y169.9808
G01 X133.1454 Y170.8052
G01 X131.6221 Y171.6010
G01 X130.0842 Y172.3681
G01 X128.5321 Y173.1062
G01 X126.9664 Y173.8149
G01 X125.3877 Y174.4941
G01 X123.7965 Y175.1435
G01 X122.1933 Y175.7629
G01 X120.5788 Y176.3520
G01 X118.9535 Y176.9107
G01 X117.3180 Y177.4388
G01 X115.6729 Y177.9360
G01 X114.0187 Y178.4022
G01 X112.3560 Y178.8372
G01 X110.6855 Y179.2409
G01 X109.0076 Y179.6131
G01 X107.3231 Y179.9538
G01 X105.6325 Y180.2627
G01 X103.9363 Y180.5397
G01 X102.2352 Y180.7849
G01 X100.5299 Y180.9980
G01 X98.8208 Y181.1790
G01 X97.1086 Y181.3279
G01 X95.3940 Y181.4446
G01 X93.6774 Y181.5290
G01 X91.9596 Y181.5812
G01 X90.2410 Y181.6010
G01 X88.5224 Y181.5886
G01 X86.8044 Y181.5438
G01 X85.0875 Y181.4668
G01 X83.3723 Y181.3575
G01 X81.6595 Y181.2160
G01 X79.9497 Y181.0423
G01 X78.2532 Y180.8392
G01 X76.5608 Y180.6045
G01 X74.8731 Y180.3382
G01 X73.1906 Y180.0405
G01 X71.5140 Y179.7115
G01 X69.8438 Y179.3513
G01 X68.1806 Y178.9599
G01 X66.5250 Y178.5376
G01 X64.8776 Y178.0845
G01 X63.2389 Y177.6008
G01 X61.6095 Y177.0865
G01 X59.9900 Y176.5419
G01 X58.3810 Y175.9673
G01 X56.7829 Y175.3627
G01 X55.1964 Y174.7283
G01 X53.6220 Y174.0646
G01 X52.0603 Y173.3715
G01 X50.5118 Y172.6494
G01 X48.9770 Y171.8986
G01 X47.4564 Y171.1193
G01 X45.9507 Y170.3117
G01 X44.4604 Y169.4762
G01 X42.9858 Y168.6130
G01 X41.5276 Y167.7225
G01 X40.0863 Y166.8049
G01 X38.6624 Y165.8606
G01 X37.2563 Y164.8899
G01 X35.8686 Y163.8931
G01 X34.4997 Y162.8706
G01 X33.1501 Y161.8228
G01 X31.8203 Y160.7499
G01 X30.5108 Y159.6525
G01 X29.2220 Y158.5308
G01 X27.9543 Y157.3852
G01 X26.7082 Y156.2162
G01 X25.4841 Y155.0242
G01 X24.2825 Y153.8095
G01 X23.1037 Y152.5726
G01 X21.9483 Y151.3140
G01 X20.8165 Y150.0340
G01 X19.7088 Y148.7331
G01 X18.6255 Y147.4118
G01 X17.5671 Y146.0704
G01 X16.5339 Y144.7096
G01 X15.5263 Y143.3298
G01 X14.5446 Y141.9314
G01 X13.5891 Y140.5149
G01 X12.6602 Y139.0808
G01 X11.7522 Y137.6216
G01 X10.8718 Y136.1457
G01 X10.0192 Y134.6534
G01 X9.1948 Y133.1454
G01 X8.3990 Y131.6221
G01 X7.6319 Y130.0842
G01 X6.8938 Y128.5321
G01 X6.1851 Y126.9664
G01 X5.5059 Y125.3877
G01 X4.8565 Y123.7965
G01 X4.2371 Y122.1933
G01 X3.6480 Y120.5788
G01 X3.0893 Y118.9535
G01 X2.5612 Y117.3180
G01 X2.0640 Y115.6729
G01 X1.5978 Y114.0187
G01 X1.1628 Y112.3560
G01 X0.7591 Y110.6855
G01 X0.3869 Y109.0076
G01 X0.0462 Y107.3231
G01 X-0.2627 Y105.6325
G01 X-0.5397 Y103.9363
G01 X-0.7849 Y102.2352
G01 X-0.9980 Y100.5299
G01 X-1.1790 Y98.8208
G01 X-1.3279 Y97.1086
G01 X-1.4446 Y95.3940
G01 X-1.5290 Y93.6774
G01 X-1.5812 Y91.9596
G01 X-1.6010 Y90.2410
G01 X-1.5886 Y88.5224
G01 X-1.5438 Y86.8044
G01 X-1.4668 Y85.0875
G01 X-1.3575 Y83.3723
G01 X-1.2160 Y81.6595
G01 X-1.0423 Y79.9497
G01 X-0.8392 Y78.2431
G01 X-0.6041 Y76.5406
G01 X-0.3369 Y74.8428
G01 X-0.0379 Y73.1503
G01 X0.2930 Y71.4638
G01 X0.6555 Y69.7838
G01 X1.0496 Y68.1109
G01 X1.4751 Y66.4458
G01 X1.9318 Y64.7889
G01 X2.4197 Y63.1409
G01 X2.9384 Y61.5024
G01 X3.4880 Y59.8740
G01 X4.0681 Y58.2562
G01 X4.6785 Y56.6496
G01 X5.3190 Y55.0547
G01 X5.9895 Y53.4722
G01 X6.6896 Y51.9026
G01 X7.4191 Y50.3465
G01 X8.1778 Y48.8043
G01 X8.9654 Y47.2767
G01 X9.7816 Y45.7642
G01 X10.6261 Y44.2673
G01 X11.4987 Y42.7866
G01 X12.3989 Y41.3226
G01 X13.3265 Y39.8758
G01 X14.2812 Y38.4467
G01 X15.2627 Y37.0358
G01 X16.2705 Y35.6436
G01 X17.3043 Y34.2706
G01 X18.3638 Y32.9174
G01 X19.4486 Y31.5843
G01 X20.5582 Y30.2719
G01 X21.6924 Y28.9806
G01 X22.8507 Y27.7108
G01 X24.0326 Y26.4631
G01 X25.2379 Y25.2379
G01 Z-15.0000 F500
G01 X26.5443 Y23.9545 F800
G01 X27.8761 Y22.6976
G01 X29.2329 Y21.4676
G01 X30.6140 Y20.2651
G01 X32.0190 Y19.0904
G01 X33.4472 Y17.9442
G01 X34.8982 Y16.8268
G01 X36.3712 Y15.7387
G01 X37.8657 Y14.6803
G01 X39.3811 Y13.6521
G01 X40.9168 Y12.6545
G01 X42.4722 Y11.6879
G01 X44.0467 Y10.7526
G01 X45.6396 Y9.8490
G01 X47.2502 Y8.9776
G01 X48.8780 Y8.1386
G01 X50.5223 Y7.3323
G01 X52.1825 Y6.5592
G01 X53.8577 Y5.8195
G01 X55.5475 Y5.1136
G01 X57.2511 Y4.4416
G01 X58.9678 Y3.8039
G01 X60.6969 Y3.2007
G01 X62.4378 Y2.6323
G01 X64.1897 Y2.0989
G01 X65.9519 Y1.6007
G01 X67.7238 Y1.1380
G01 X69.5046 Y0.7108
G01 X71.2936 Y0.3194
G01 X73.0900 Y-0.0361
G01 X74.8933 Y-0.3555
G01 X76.7026 Y-0.6387
G01 X78.5171 Y-0.8857
G01 X80.3363 Y-1.0961
G01 X82.1593 Y-1.2702
G01 X83.9855 Y-1.4076
G01 X85.8140 Y-1.5084
G01 X87.6442 Y-1.5726
G01 X89.4753 Y-1.6000
G01 X91.3066 Y-1.5908
G01 X93.1373 Y-1.5449
G01 X94.9668 Y-1.4623
G01 X96.7942 Y-1.3430
G01 X98.6189 Y-1.1872
G01 X100.3184 Y-1.0110
G01 X102.0143 Y-0.8031
G01 X103.7060 Y-0.5637
G01 X105.3930 Y-0.2926
G01 X107.0746 Y0.0098
G01 X108.7503 Y0.3436
G01 X110.4195 Y0.7086
G01 X112.0816 Y1.1047
G01 X113.7360 Y1.5317
G01 X115.3821 Y1.9895
G01 X117.0194 Y2.4780
G01 X118.6473 Y2.9969
G01 X120.2652 Y3.5461
G01 X121.8726 Y4.1255
G01 X123.4689 Y4.7347
G01 X125.0536 Y5.3736
G01 X126.6260 Y6.0420
G01 X128.1858 Y6.7395
G01 X129.7322 Y7.4661
G01 X131.2648 Y8.2214
G01 X132.7830 Y9.0052
G01 X134.2864 Y9.8172
G01 X135.7743 Y10.6571
G01 X137.2463 Y11.5246
G01 X138.7019 Y12.4194
G01 X140.1405 Y13.3413
G01 X141.5616 Y14.2898
G01 X142.9648 Y15.2647
G01 X144.3496 Y16.2655
G01 X145.7154 Y17.2921
G01 X147.0618 Y18.3440
G01 X148.3884 Y19.4208
G01 X149.6947 Y20.5222
G01 X150.9802 Y21.6477
G01 X152.2444 Y22.7971
G01 X153.4870 Y23.9699
G01 X154.7075 Y25.1656
G01 X155.9054 Y26.3839
G01 X157.0804 Y27.6244
G01 X158.2321 Y28.8865
G01 X159.3599 Y30.1700
G01 X160.4637 Y31.4742
G01 X161.5429 Y32.7988
G01 X162.5972 Y34.1434
G01 X163.6263 Y35.5074
G01 X164.6297 Y36.8903
G01 X165.6071 Y38.2917
G01 X166.5582 Y39.7112
G01 X167.5105 Y41.1896
G01 X168.4343 Y42.6861
G01 X169.3290 Y44.2000
G01 X170.1945 Y45.7309
G01 X171.0304 Y47.2782
G01 X171.8364 Y48.8412
G01 X172.6121 Y50.4195
G01 X173.3573 Y52.0124
G01 X174.0718 Y53.6194
G01 X174.7552 Y55.2398
G01 X175.4073 Y56.8730
G01 X176.0279 Y58.5185
G01 X176.6167 Y60.1756
G01 X177.1735 Y61.8437
G01 X177.6981 Y63.5223
G01 X178.1903 Y65.2106
G01 X178.6500 Y66.9081
G01 X179.0769 Y68.6141
G01 X179.4709 Y70.3280
G01 X179.8319 Y72.0492
G01 X180.1597 Y73.7770
G01 X180.4542 Y75.5107
G01 X180.7153 Y77.2499
G01 X180.9428 Y78.9937
G01 X181.1368 Y80.7416
G01 X181.2972 Y82.4929
G01 X181.4238 Y84.2469
G01 X181.5166 Y86.0031
G01 X181.5757 Y87.7607
G01 X181.6009 Y89.5191
G01 X181.5923 Y91.2777
G01 X181.5498 Y93.0358
G01 X181.4736 Y94.7928
G01 X181.3635 Y96.5479
G01 X181.2198 Y98.3007
G01 X181.0423 Y100.0503
G01 X180.8392 Y101.7468
G01 X180.6045 Y103.4392
G01 X180.3382 Y105.1269
G01 X180.0405 Y106.8094
G01 X179.7115 Y108.4860
G01 X179.3513 Y110.1562
G01 X178.9599 Y111.8194
G01 X178.5376 Y113.4750
G01 X178.0845 Y115.1224
G01 X177.6008 Y116.7611
G01 X177.0865 Y118.3905
G01 X176.5419 Y120.0100
G01 X175.9673 Y121.6190
G01 X175.3627 Y123.2171
G01 X174.7283 Y124.8036
G01 X174.0646 Y126.3780
G01 X173.3715 Y127.9397
G01 X172.6494 Y129.4882
G01 X171.8986 Y131.0230
G01 X171.1193 Y132.5436
G01 X170.3117 Y134.0493
G01 X169.4762 Y135.5397
G01 X168.6130 Y137.0142
G01 X167.7225 Y138.4724
G01 X166.8049 Y139.9137
G01 X165.8606 Y141.3376
G01 X164.8899 Y142.7437
G01 X163.8931 Y144.1314
G01 X162.8706 Y145.5003
G01 X161.8228 Y146.8499
G01 X160.7499 Y148.1797
G01 X159.6525 Y149.4892
G01 X158.5308 Y150.7780
G01 X157.3852 Y152.0457
G01 X156.2162 Y153.2918
G01 X155.0242 Y154.5159
G01 X153.8095 Y155.7175
G01 X152.5726 Y156.8963
G01 X151.3140 Y158.0517
G01 X150.0340 Y159.1835
G01 X148.7331 Y160.2912
G01 X147.4118 Y161.3745
G01 X146.0704 Y162.4329
G01 X144.7096 Y163.4661
G01 X143.3298 Y164.4737
G01 X141.9314 Y165.4554
G01 X140.5149 Y166.4109
G01 X139.0808 Y167.3398
G01 X137.6216 Y168.2478
G01 X136.1457 Y169.1282
G01 X134.6534 Y169.9808
G01 X133.1454 Y170.8052
G01 X131.6221 Y171.6010
G01 X130.0842 Y172.3681
G01 X128.5321 Y173.1062
G01 X126.9664 Y173.8149
G01 X125.3877 Y174.4941
G01 X123.7965 Y175.1435
G01 X122.1933 Y175.7629
G01 X120.5788 Y176.3520
G01 X118.9535 Y176.9107
G01 X117.3180 Y177.4388
G01 X115.6729 Y177.9360
G01 X114.0187 Y178.4022
G01 X112.3560 Y178.8372
G01 X110.6855 Y179.2409
G01 X109.0076 Y179.6131
G01 X107.3231 Y179.9538
G01 X105.6325 Y180.2627
G01 X103.9363 Y180.5397
G01 X102.2352 Y180.7849
G01 X100.5299 Y180.9980
G01 X98.8208 Y181.1790
G01 X97.1086 Y181.3279
G01 X95.3940 Y181.4446
G01 X93.6774 Y181.5290
G01 X91.9596 Y181.5812
G01 X90.2410 Y181.6010
G01 X88.5224 Y181.5886
G01 X86.8044 Y181.5438
G01 X85.0875 Y181.4668
G01 X83.3723 Y181.3575
G01 X81.6595 Y181.2160
G01 X79.9497 Y181.0423
G01 X78.2532 Y180.8392
G01 X76.5608 Y180.6045
G01 X74.8731 Y180.3382
G01 X73.1906 Y180.0405
G01 X71.5140 Y179.7115
G01 X69.8438 Y179.3513
G01 X68.1806 Y178.9599
G01 X66.5250 Y178.5376
G01 X64.8776 Y178.0845
G01 X63.2389 Y177.6008
G01 X61.6095 Y177.0865
G01 X59.9900 Y176.5419
G01 X58.3810 Y175.9673
G01 X56.7829 Y175.3627
G01 X55.1964 Y174.7283
G01 X53.6220 Y174.0646
G01 X52.0603 Y173.3715
G01 X50.5118 Y172.6494
G01 X48.9770 Y171.8986
G01 X47.4564 Y171.1193
G01 X45.9507 Y170.3117
G01 X44.4604 Y169.4762
G01 X42.9858 Y168.6130
G01 X41.5276 Y167.7225
G01 X40.0863 Y166.8049
G01 X38.6624 Y165.8606
G01 X37.2563 Y164.8899
G01 X35.8686 Y163.8931
G01 X34.4997 Y162.8706
G01 X33.1501 Y161.8228
G01 X31.8203 Y160.7499
G01 X30.5108 Y159.6525
G01 X29.2220 Y158.5308
G01 X27.9543 Y157.3852
G01 X26.7082 Y156.2162
G01 X25.4841 Y155.0242
G01 X24.2825 Y153.8095
G01 X23.1037 Y152.5726
G01 X21.9483 Y151.3140
G01 X20.8165 Y150.0340
G01 X19.7088 Y148.7331
G01 X18.6255 Y147.4118
G01 X17.5671 Y146.0704
G01 X16.5339 Y144.7096
G01 X15.5263 Y143.3298
G01 X14.5446 Y141.9314
G01 X13.5891 Y140.5149
G01 X12.6602 Y139.0808
G01 X11.7522 Y137.6216
G01 X10.8718 Y136.1457
G01 X10.0192 Y134.6534
G01 X9.1948 Y133.1454
G01 X8.3990 Y131.6221
G01 X7.6319 Y130.0842
G01 X6.8938 Y128.5321
G01 X6.1851 Y126.9664
G01 X5.5059 Y125.3877
G01 X4.8565 Y123.7965
G01 X4.2371 Y122.1933
G01 X3.6480 Y120.5788
G01 X3.0893 Y118.9535
G01 X2.5612 Y117.3180
G01 X2.0640 Y115.6729
G01 X1.5978 Y114.0187
G01 X1.1628 Y112.3560
G01 X0.7591 Y110.6855
G01 X0.3869 Y109.0076
G01 X0.0462 Y107.3231
G01 X-0.2627 Y105.6325
G01 X-0.5397 Y103.9363
G01 X-0.7849 Y102.2352
G01 X-0.9980 Y100.5299
G01 X-1.1790 Y98.8208
G01 X-1.3279 Y97.1086
G01 X-1.4446 Y95.3940
G01 X-1.5290 Y93.6774
G01 X-1.5812 Y91.9596
G01 X-1.6010 Y90.2410
G01 X-1.5886 Y88.5224
G01 X-1.5438 Y86.8044
G01 X-1.4668 Y85.0875
G01 X-1.3575 Y83.3723
G01 X-1.2160 Y81.6595
G01 X-1.0423 Y79.9497
G01 X-0.8392 Y78.2431
G01 X-0.6041 Y76.5406
G01 X-0.3369 Y74.8428
G01 X-0.0379 Y73.1503
G01 X0.2930 Y71.4638
G01 X0.6555 Y69.7838
G01 X1.0496 Y68.1109
G01 X1.4751 Y66.4458
G01 X1.9318 Y64.7889
G01 X2.4197 Y63.1409
G01 X2.9384 Y61.5024
G01 X3.4880 Y59.8740
G01 X4.0681 Y58.2562
G01 X4.6785 Y56.6496
G01 X5.3190 Y55.0547
G01 X5.9895 Y53.4722
G01 X6.6896 Y51.9026
G01 X7.4191 Y50.3465
G01 X8.1778 Y48.8043
G01 X8.9654 Y47.2767
G01 X9.7816 Y45.7642
G01 X10.6261 Y44.2673
G01 X11.4987 Y42.7866
G01 X12.3989 Y41.3226
G01 X13.3265 Y39.8758
G01 X14.2812 Y38.4467
G01 X15.2627 Y37.0358
G01 X16.2705 Y35.6436
G01 X17.3043 Y34.2706
G01 X18.3638 Y32.9174
G01 X19.4486 Y31.5843
G01 X20.5582 Y30.2719
G01 X21.6924 Y28.9806
G01 X22.8507 Y27.7108
G01 X24.0326 Y26.4631
G01 X25.2379 Y25.2379
G01 Z-18.0000 F500
G01 X26.5443 Y23.9545 F800
G01 X27.8761 Y22.6976
G01 X29.2329 Y21.4676
G01 X30.6140 Y20.2651
G01 X32.0190 Y19.0904
G01 X33.4472 Y17.9442
G01 X34.8982 Y16.8268
G01 X36.3712 Y15.7387
G01 X37.8657 Y14.6803
G01 X39.3811 Y13.6521
G01 X40.9168 Y12.6545
G01 X42.4722 Y11.6879
G01 X44.0467 Y10.7526
G01 X45.6396 Y9.8490
G01 X47.2502 Y8.9776
G01 X48.8780 Y8.1386
G01 X50.5223 Y7.3323
G01 X52.1825 Y6.5592
G01 X53.8577 Y5.8195
G01 X55.5475 Y5.1136
G01 X57.2511 Y4.4416
G01 X58.9678 Y3.8039
G01 X60.6969 Y3.2007
G01 X62.4378 Y2.6323
G01 X64.1897 Y2.0989
G01 X65.9519 Y1.6007
G01 X67.7238 Y1.1380
G01 X69.5046 Y0.7108
G01 X71.2936 Y0.3194
G01 X73.0900 Y-0.0361
G01 X74.8933 Y-0.3555
G01 X76.7026 Y-0.6387
G01 X78.5171 Y-0.8857
G01 X80.3363 Y-1.0961
G01 X82.1593 Y-1.2702
G01 X83.9855 Y-1.4076
G01 X85.8140 Y-1.5084
G01 X87.6442 Y-1.5726
G01 X89.4753 Y-1.6000
G01 X91.3066 Y-1.5908
G01 X93.1373 Y-1.5449
G01 X94.9668 Y-1.4623
G01 X96.7942 Y-1.3430
G01 X98.6189 Y-1.1872
G01 X100.3184 Y-1.0110
G01 X102.0143 Y-0.8031
G01 X103.7060 Y-0.5637
G01 X105.3930 Y-0.2926
G01 X107.0746 Y0.0098
G01 X108.7503 Y0.3436
G01 X110.4195 Y0.7086
G01 X112.0816 Y1.1047
G01 X113.7360 Y1.5317
G01 X115.3821 Y1.9895
G01 X117.0194 Y2.4780
G01 X118.6473 Y2.9969
G01 X120.2652 Y3.5461
G01 X121.8726 Y4.1255
G01 X123.4689 Y4.7347
G01 X125.0536 Y5.3736
G01 X126.6260 Y6.0420
G01 X128.1858 Y6.7395
G01 X129.7322 Y7.4661
G01 X131.2648 Y8.2214
G01 X132.7830 Y9.0052
G01 X134.2864 Y9.8172
G01 X135.7743 Y10.6571
G01 X137.2463 Y11.5246
G01 X138.7019 Y12.4194
G01 X140.1405 Y13.3413
G01 X141.5616 Y14.2898
G01 X142.9648 Y15.2647
G01 X144.3496 Y16.2655
G01 X145.7154 Y17.2921
G01 X147.0618 Y18.3440
G01 X148.3884 Y19.4208
G01 X149.6947 Y20.5222
G01 X150.9802 Y21.6477
G01 X152.2444 Y22.7971
G01 X153.4870 Y23.9699
G01 X154.7075 Y25.1656
G01 X155.9054 Y26.3839
G01 X157.0804 Y27.6244
G01 X158.2321 Y28.8865
G01 X159.3599 Y30.1700
G01 X160.4637 Y31.4742
G01 X161.5429 Y32.7988
G01 X162.5972 Y34.1434
G01 X163.6263 Y35.5074
G01 X164.6297 Y36.8903
G01 X165.6071 Y38.2917
G01 X166.5582 Y39.7112
G01 X167.5105 Y41.1896
G01 X168.4343 Y42.6861
G01 X169.3290 Y44.2000
G01 X170.1945 Y45.7309
G01 X171.0304 Y47.2782
G01 X171.8364 Y48.8412
G01 X172.6121 Y50.4195
G01 X173.3573 Y52.0124
G01 X174.0718 Y53.6194
G01 X174.7552 Y55.2398
G01 X175.4073 Y56.8730
G01 X176.0279 Y58.5185
G01 X176.6167 Y60.1756
G01 X177.1735 Y61.8437
G01 X177.6981 Y63.5223
G01 X178.1903 Y65.2106
G01 X178.6500 Y66.9081
G01 X179.0769 Y68.6141
G01 X179.4709 Y70.3280
G01 X179.8319 Y72.0492
G01 X180.1597 Y73.7770
G01 X180.4542 Y75.5107
G01 X180.7153 Y77.2499
G01 X180.9428 Y78.9937
G01 X181.1368 Y80.7416
G01 X181.2972 Y82.4929
G01 X181.4238 Y84.2469
G01 X181.5166 Y86.0031
G01 X181.5757 Y87.7607
G01 X181.6009 Y89.5191
G01 X181.5923 Y91.2777
G01 X181.5498 Y93.0358
G01 X181.4736 Y94.7928
G01 X181.3635 Y96.5479
G01 X181.2198 Y98.3007
G01 X181.0423 Y100.0503
G01 X180.8392 Y101.7468
G01 X180.6045 Y103.4392
G01 X180.3382 Y105.1269
G01 X180.0405 Y106.8094
G01 X179.7115 Y108.4860
G01 X179.3513 Y110.1562
G01 X178.9599 Y111.8194
G01 X178.5376 Y113.4750
G01 X178.0845 Y115.1224
G01 X177.6008 Y116.7611
G01 X177.0865 Y118.3905
G01 X176.5419 Y120.0100
G01 X175.9673 Y121.6190
G01 X175.3627 Y123.2171
G01 X174.7283 Y124.8036
G01 X174.0646 Y126.3780
G01 X173.3715 Y127.9397
G01 X172.6494 Y129.4882
G01 X171.8986 Y131.0230
G01 X171.1193 Y132.5436
G01 X170.3117 Y134.0493
G01 X169.4762 Y135.5397
G01 X168.6130 Y137.0142
G01 X167.7225 Y138.4724
G01 X166.8049 Y139.9137
G01 X165.8606 Y141.3376
G01 X164.8899 Y142.7437
G01 X163.8931 Y144.1314
G01 X162.8706 Y145.5003
G01 X161.8228 Y146.8499
G01 X160.7499 Y148.1797
G01 X159.6525 Y149.4892
G01 X158.5308 Y150.7780
G01 X157.3852 Y152.0457
G01 X156.2162 Y153.2918
G01 X155.0242 Y154.5159
G01 X153.8095 Y155.7175
G01 X152.5726 Y156.8963
G01 X151.3140 Y158.0517
G01 X150.0340 Y159.1835
G01 X148.7331 Y160.2912
G01 X147.4118 Y161.3745
G01 X146.0704 Y162.4329
G01 X144.7096 Y163.4661
G01 X143.3298 Y164.4737
G01 X141.9314 Y165.4554
G01 X140.5149 Y166.4109
G01 X139.0808 Y167.3398
G01 X137.6216 Y168.2478
G01 X136.1457 Y169.1282
G01 X134.6534 Y169.9808
G01 X133.1454 Y170.8052
G01 X131.6221 Y171.6010
G01 X130.0842 Y172.3681
G01 X128.5321 Y173.1062
G01 X126.9664 Y173.8149
G01 X125.3877 Y174.4941
G01 X123.7965 Y175.1435
G01 X122.1933 Y175.7629
G01 X120.5788 Y176.3520
G01 X118.9535 Y176.9107
G01 X117.3180 Y177.4388
G01 X115.6729 Y177.9360
G01 X114.0187 Y178.4022
G01 X112.3560 Y178.8372
G01 X110.6855 Y179.2409
G01 X109.0076 Y179.6131
G01 X107.3231 Y179.9538
G01 X105.6325 Y180.2627
G01 X103.9363 Y180.5397
G01 X102.2352 Y180.7849
G01 X100.5299 Y180.9980
G01 X98.8208 Y181.1790
G01 X97.1086 Y181.3279
G01 X95.3940 Y181.4446
G01 X93.6774 Y181.5290
G01 X91.9596 Y181.5812
G01 X90.2410 Y181.6010
G01 X88.5224 Y181.5886
G01 X86.8044 Y181.5438
G01 X85.0875 Y181.4668
G01 X83.3723 Y181.3575
G01 X81.6595 Y181.2160
G01 X79.9497 Y181.0423
G01 X78.2532 Y180.8392
G01 X76.5608 Y180.6045
G01 X74.8731 Y180.3382
G01 X73.1906 Y180.0405
G01 X71.5140 Y179.7115
G01 X69.8438 Y179.3513
G01 X68.1806 Y178.9599
G01 X66.5250 Y178.5376
G01 X64.8776 Y178.0845
G01 X63.2389 Y177.6008
G01 X61.6095 Y177.0865
G01 X59.9900 Y176.5419
G01 X58.3810 Y175.9673
G01 X56.7829 Y175.3627
G01 X55.1964 Y174.7283
G01 X53.6220 Y174.0646
G01 X52.0603 Y173.3715
G01 X50.5118 Y172.6494
G01 X48.9770 Y171.8986
G01 X47.4564 Y171.1193
G01 X45.9507 Y170.3117
G01 X44.4604 Y169.4762
G01 X42.9858 Y168.6130
G01 X41.5276 Y167.7225
G01 X40.0863 Y166.8049
G01 X38.6624 Y165.8606
G01 X37.2563 Y164.8899
G01 X35.8686 Y163.8931
G01 X34.4997 Y162.8706
G01 X33.1501 Y161.8228
G01 X31.8203 Y160.7499
G01 X30.5108 Y159.6525
G01 X29.2220 Y158.5308
G01 X27.9543 Y157.3852
G01 X26.7082 Y156.2162
G01 X25.4841 Y155.0242
G01 X24.2825 Y153.8095
G01 X23.1037 Y152.5726
G01 X21.9483 Y151.3140
G01 X20.8165 Y150.0340
G01 X19.7088 Y148.7331
G01 X18.6255 Y147.4118
G01 X17.5671 Y146.0704
G01 X16.5339 Y144.7096
G01 X15.5263 Y143.3298
G01 X14.5446 Y141.9314
G01 X13.5891 Y140.5149
G01 X12.6602 Y139.0808
G01 X11.7522 Y137.6216
G01 X10.8718 Y136.1457
G01 X10.0192 Y134.6534
G01 X9.1948 Y133.1454
G01 X8.3990 Y131.6221
G01 X7.6319 Y130.0842
G01 X6.8938 Y128.5321
G01 X6.1851 Y126.9664
G01 X5.5059 Y125.3877
G01 X4.8565 Y123.7965
G01 X4.2371 Y122.1933
G01 X3.6480 Y120.5788
G01 X3.0893 Y118.9535
G01 X2.5612 Y117.3180
G01 X2.0640 Y115.6729
G01 X1.5978 Y114.0187
G01 X1.1628 Y112.3560
G01 X0.7591 Y110.6855
G01 X0.3869 Y109.0076
G01 X0.0462 Y107.3231
G01 X-0.2627 Y105.6325
G01 X-0.5397 Y103.9363
G01 X-0.7849 Y102.2352
G01 X-0.9980 Y100.5299
G01 X-1.1790 Y98.8208
G01 X-1.3279 Y97.1086
G01 X-1.4446 Y95.3940
G01 X-1.5290 Y93.6774
G01 X-1.5812 Y91.9596
G01 X-1.6010 Y90.2410
G01 X-1.5886 Y88.5224
G01 X-1.5438 Y86.8044
G01 X-1.4668 Y85.0875
G01 X-1.3575 Y83.3723
G01 X-1.2160 Y81.6595
G01 X-1.0423 Y79.9497
G01 X-0.8392 Y78.2431
G01 X-0.6041 Y76.5406
G01 X-0.3369 Y74.8428
G01 X-0.0379 Y73.1503
G01 X0.2930 Y71.4638
G01 X0.6555 Y69.7838
G01 X1.0496 Y68.1109
G01 X1.4751 Y66.4458
G01 X1.9318 Y64.7889
G01 X2.4197 Y63.1409
G01 X2.9384 Y61.5024
G01 X3.4880 Y59.8740
G01 X4.0681 Y58.2562
G01 X4.6785 Y56.6496
G01 X5.3190 Y55.0547
G01 X5.9895 Y53.4722
G01 X6.6896 Y51.9026
G01 X7.4191 Y50.3465
G01 X8.1778 Y48.8043
G01 X8.9654 Y47.2767
G01 X9.7816 Y45.7642
G01 X10.6261 Y44.2673
G01 X11.4987 Y42.7866
G01 X12.3989 Y41.3226
G01 X13.3265 Y39.8758
G01 X14.2812 Y38.4467
G01 X15.2627 Y37.0358
G01 X16.2705 Y35.6436
G01 X17.3043 Y34.2706
G01 X18.3638 Y32.9174
G01 X19.4486 Y31.5843
G01 X20.5582 Y30.2719
G01 X21.6924 Y28.9806
G01 X22.8507 Y27.7108
G01 X24.0326 Y26.4631
G01 X25.2379 Y25.2379
G01 Z-18.5000 F500
G01 X26.5443 Y23.9545 F800
G01 X27.8761 Y22.6976
G01 X29.2329 Y21.4676
G01 X30.6140 Y20.2651
G01 X32.0190 Y19.0904
G01 X33.4472 Y17.9442
G01 X34.8982 Y16.8268
G01 X36.3712 Y15.7387
G01 X37.8657 Y14.6803
G01 X39.3811 Y13.6521
G01 X40.9168 Y12.6545
G01 X42.4722 Y11.6879
G01 X44.0467 Y10.7526
G01 X45.6396 Y9.8490
G01 X47.2502 Y8.9776
G01 X48.8780 Y8.1386
G01 X50.5223 Y7.3323
G01 X52.1825 Y6.5592
G01 X53.8577 Y5.8195
G01 X55.5475 Y5.1136
G01 X57.2511 Y4.4416
G01 X58.9678 Y3.8039
G01 X60.6969 Y3.2007
G01 X62.4378 Y2.6323
G01 X64.1897 Y2.0989
G01 X65.9519 Y1.6007
G01 X67.7238 Y1.1380
G01 X69.5046 Y0.7108
G01 X71.2936 Y0.3194
G01 X73.0900 Y-0.0361
G01 X74.8933 Y-0.3555
G01 X76.7026 Y-0.6387
G01 X78.5171 Y-0.8857
G01 X80.3363 Y-1.0961
G01 X82.1593 Y-1.2702
G01 X83.9855 Y-1.4076
G01 X85.8140 Y-1.5084
G01 X87.6442 Y-1.5726
G01 X89.4753 Y-1.6000
G01 X91.3066 Y-1.5908
G01 X93.1373 Y-1.5449
G01 X94.9668 Y-1.4623
G01 X96.7942 Y-1.3430
G01 X98.6189 Y-1.1872
G01 X100.3184 Y-1.0110
G01 X102.0143 Y-0.8031
G01 X103.7060 Y-0.5637
G01 X105.3930 Y-0.2926
G01 X107.0746 Y0.0098
G01 X108.7503 Y0.3436
G01 X110.4195 Y0.7086
G01 X112.0816 Y1.1047
G01 X113.7360 Y1.5317
G01 X115.3821 Y1.9895
G01 X117.0194 Y2.4780
G01 X118.6473 Y2.9969
G01 X120.2652 Y3.5461
G01 X121.8726 Y4.1255
G01 X123.4689 Y4.7347
G01 X125.0536 Y5.3736
G01 X126.6260 Y6.0420
G01 X128.1858 Y6.7395
G01 X129.7322 Y7.4661
G01 X131.2648 Y8.2214
G01 X132.7830 Y9.0052
G01 X134.2864 Y9.8172
G01 X135.7743 Y10.6571
G01 X137.2463 Y11.5246
G01 X138.7019 Y12.4194
G01 X140.1405 Y13.3413
G01 X141.5616 Y14.2898
G01 X142.9648 Y15.2647
G01 X144.3496 Y16.2655
G01 X145.7154 Y17.2921
G01 X147.0618 Y18.3440
G01 X148.3884 Y19.4208
G01 X149.6947 Y20.5222
G01 X150.9802 Y21.6477
G01 X152.2444 Y22.7971
G01 X153.4870 Y23.9699
G01 X154.7075 Y25.1656
G01 X155.9054 Y26.3839
G01 X157.0804 Y27.6244
G01 X158.2321 Y28.8865
G01 X159.3599 Y30.1700
G01 X160.4637 Y31.4742
G01 X161.5429 Y32.7988
G01 X162.5972 Y34.1434
G01 X163.6263 Y35.5074
G01 X164.6297 Y36.8903
G01 X165.6071 Y38.2917
G01 X166.5582 Y39.7112
G01 X167.5105 Y41.1896
G01 X168.4343 Y42.6861
G01 X169.3290 Y44.2000
G01 X170.1945 Y45.7309
G01 X171.0304 Y47.2782
G01 X171.8364 Y48.8412
G01 X172.6121 Y50.4195
G01 X173.3573 Y52.0124
G01 X174.0718 Y53.6194
G01 X174.7552 Y55.2398
G01 X175.4073 Y56.8730
G01 X176.0279 Y58.5185
G01 X176.6167 Y60.1756
G01 X177.1735 Y61.8437
G01 X177.6981 Y63.5223
G01 X178.1903 Y65.2106
G01 X178.6500 Y66.9081
G01 X179.0769 Y68.6141
G01 X179.4709 Y70.3280
G01 X179.8319 Y72.0492
G01 X180.1597 Y73.7770
G01 X180.4542 Y75.5107
G01 X180.7153 Y77.2499
G01 X180.9428 Y78.9937
G01 X181.1368 Y80.7416
G01 X181.2972 Y82.4929
G01 X181.4238 Y84.2469
G01 X181.5166 Y86.0031
G01 X181.5757 Y87.7607
G01 X181.6009 Y89.5191
G01 X181.5923 Y91.2777
G01 X181.5498 Y93.0358
G01 X181.4736 Y94.7928
G01 X181.3635 Y96.5479
G01 X181.2198 Y98.3007
G01 X181.0423 Y100.0503
G01 X180.8392 Y101.7468
G01 X180.6045 Y103.4392
G01 X180.3382 Y105.1269
G01 X180.0405 Y106.8094
G01 X179.7115 Y108.4860
G01 X179.3513 Y110.1562
G01 X178.9599 Y111.8194
G01 X178.5376 Y113.4750
G01 X178.0845 Y115.1224
G01 X177.6008 Y116.7611
G01 X177.0865 Y118.3905
G01 X176.5419 Y120.0100
G01 X175.9673 Y121.6190
G01 X175.3627 Y123.2171
G01 X174.7283 Y124.8036
G01 X174.0646 Y126.3780
G01 X173.3715 Y127.9397
G01 X172.6494 Y129.4882
G01 X171.8986 Y131.0230
G01 X171.1193 Y132.5436
G01 X170.3117 Y134.0493
G01 X169.4762 Y135.5397
G01 X168.6130 Y137.0142
G01 X167.7225 Y138.4724
G01 X166.8049 Y139.9137
G01 X165.8606 Y141.3376
G01 X164.8899 Y142.7437
G01 X163.8931 Y144.1314
G01 X162.8706 Y145.5003
G01 X161.8228 Y146.8499
G01 X160.7499 Y148.1797
G01 X159.6525 Y149.4892
G01 X158.5308 Y150.7780
G01 X157.3852 Y152.0457
G01 X156.2162 Y153.2918
G01 X155.0242 Y154.5159
G01 X153.8095 Y155.7175
G01 X152.5726 Y156.8963
G01 X151.3140 Y158.0517
G01 X150.0340 Y159.1835
G01 X148.7331 Y160.2912
G01 X147.4118 Y161.3745
G01 X146.0704 Y162.4329
G01 X144.7096 Y163.4661
G01 X143.3298 Y164.4737
G01 X141.9314 Y165.4554
G01 X140.5149 Y166.4109
G01 X139.0808 Y167.3398
G01 X137.6216 Y168.2478
G01 X136.1457 Y169.1282
G01 X134.6534 Y169.9808
G01 X133.1454 Y170.8052
G01 X131.6221 Y171.6010
G01 X130.0842 Y172.3681
G01 X128.5321 Y173.1062
G01 X126.9664 Y173.8149
G01 X125.3877 Y174.4941
G01 X123.7965 Y175.1435
G01 X122.1933 Y175.7629
G01 X120.5788 Y176.3520
G01 X118.9535 Y176.9107
G01 X117.3180 Y177.4388
G01 X115.6729 Y177.9360
G01 X114.0187 Y178.4022
G01 X112.3560 Y178.8372
G01 X110.6855 Y179.2409
G01 X109.0076 Y179.6131
G01 X107.3231 Y179.9538
G01 X105.6325 Y180.2627
G01 X103.9363 Y180.5397
G01 X102.2352 Y180.7849
G01 X100.5299 Y180.9980
G01 X98.8208 Y181.1790
G01 X97.1086 Y181.3279
G01 X95.3940 Y181.4446
G01 X93.6774 Y181.5290
G01 X91.9596 Y181.5812
G01 X90.2410 Y181.6010
G01 X88.5224 Y181.5886
G01 X86.8044 Y181.5438
G01 X85.0875 Y181.4668
G01 X83.3723 Y181.3575
G01 X81.6595 Y181.2160
G01 X79.9497 Y181.0423
G01 X78.2532 Y180.8392
G01 X76.5608 Y180.6045
G01 X74.8731 Y180.3382
G01 X73.1906 Y180.0405
G01 X71.5140 Y179.7115
G01 X69.8438 Y179.3513
G01 X68.1806 Y178.9599
G01 X66.5250 Y178.5376
G01 X64.8776 Y178.0845
G01 X63.2389 Y177.6008
G01 X61.6095 Y177.0865
G01 X59.9900 Y176.5419
G01 X58.3810 Y175.9673
G01 X56.7829 Y175.3627
G01 X55.1964 Y174.7283
G01 X53.6220 Y174.0646
G01 X52.0603 Y173.3715
G01 X50.5118 Y172.6494
G01 X48.9770 Y171.8986
G01 X47.4564 Y171.1193
G01 X45.9507 Y170.3117
G01 X44.4604 Y169.4762
G01 X42.9858 Y168.6130
G01 X41.5276 Y167.7225
G01 X40.0863 Y166.8049
G01 X38.6624 Y165.8606
G01 X37.2563 Y164.8899
G01 X35.8686 Y163.8931
G01 X34.4997 Y162.8706
G01 X33.1501 Y161.8228
G01 X31.8203 Y160.7499
G01 X30.5108 Y159.6525
G01 X29.2220 Y158.5308
G01 X27.9543 Y157.3852
G01 X26.7082 Y156.2162
G01 X25.4841 Y155.0242
G01 X24.2825 Y153.8095
G01 X23.1037 Y152.5726
G01 X21.9483 Y151.3140
G01 X20.8165 Y150.0340
G01 X19.7088 Y148.7331
G01 X18.6255 Y147.4118
G01 X17.5671 Y146.0704
G01 X16.5339 Y144.7096
G01 X15.5263 Y143.3298
G01 X14.5446 Y141.9314
G01 X13.5891 Y140.5149
G01 X12.6602 Y139.0808
G01 X11.7522 Y137.6216
G01 X10.8718 Y136.1457
G01 X10.0192 Y134.6534
G01 X9.1948 Y133.1454
G01 X8.3990 Y131.6221
G01 X7.6319 Y130.0842
G01 X6.8938 Y128.5321
G01 X6.1851 Y126.9664
G01 X5.5059 Y125.3877
G01 X4.8565 Y123.7965
G01 X4.2371 Y122.1933
G01 X3.6480 Y120.5788
G01 X3.0893 Y118.9535
G01 X2.5612 Y117.3180
G01 X2.0640 Y115.6729
G01 X1.5978 Y114.0187
G01 X1.1628 Y112.3560
G01 X0.7591 Y110.6855
G01 X0.3869 Y109.0076
G01 X0.0462 Y107.3231
G01 X-0.2627 Y105.6325
G01 X-0.5397 Y103.9363
G01 X-0.7849 Y102.2352
G01 X-0.9980 Y100.5299
G01 X-1.1790 Y98.8208
G01 X-1.3279 Y97.1086
G01 X-1.4446 Y95.3940
G01 X-1.5290 Y93.6774
G01 X-1.5812 Y91.9596
G01 X-1.6010 Y90.2410
G01 X-1.5886 Y88.5224
G01 X-1.5438 Y86.8044
G01 X-1.4668 Y85.0875
G01 X-1.3575 Y83.3723
G01 X-1.2160 Y81.6595
G01 X-1.0423 Y79.9497
G01 X-0.8392 Y78.2431
G01 X-0.6041 Y76.5406
G01 X-0.3369 Y74.8428
G01 X-0.0379 Y73.1503
G01 X0.2930 Y71.4638
G01 X0.6555 Y69.7838
G01 X1.0496 Y68.1109
G01 X1.4751 Y66.4458
G01 X1.9318 Y64.7889
G01 X2.4197 Y63.1409
G01 X2.9384 Y61.5024
G01 X3.4880 Y59.8740
G01 X4.0681 Y58.2562
G01 X4.6785 Y56.6496
G01 X5.3190 Y55.0547
G01 X5.9895 Y53.4722
G01 X6.6896 Y51.9026
G01 X7.4191 Y50.3465
G01 X8.1778 Y48.8043
G01 X8.9654 Y47.2767
G01 X9.7816 Y45.7642
G01 X10.6261 Y44.2673
G01 X11.4987 Y42.7866
G01 X12.3989 Y41.3226
G01 X13.3265 Y39.8758
G01 X14.2812 Y38.4467
G01 X15.2627 Y37.0358
G01 X16.2705 Y35.6436
G01 X17.3043 Y34.2706
G01 X18.3638 Y32.9174
G01 X19.4486 Y31.5843
G01 X20.5582 Y30.2719
G01 X21.6924 Y28.9806
G01 X22.8507 Y27.7108
G01 X24.0326 Y26.4631
G01 X25.2379 Y25.2379
G00 Z2.0000


;No. 2: Part 2
G00 X38.4019 Y54.7292 Z2.0000
G00 Z0.5000
G01 Z0.0000 F500
G01 Z-3.0000
G01 X38.7795 Y54.5030 F800
G01 X39.1733 Y54.3064
G01 X39.5810 Y54.1406
G01 X40.0003 Y54.0064
G01 X40.4286 Y53.9048
G01 X40.8634 Y53.8363
G01 X41.3021 Y53.8014
G01 X41.7423 Y53.8001
G01 X42.1813 Y53.8326
G01 X42.6165 Y53.8986
G01 X43.0453 Y53.9977
G01 X43.4653 Y54.1294
G01 X43.8740 Y54.2929
G01 X44.2689 Y54.4872
G01 X44.6478 Y54.7113
G01 X45.0084 Y54.9636
G01 X45.3487 Y55.2429
G01 X45.6665 Y55.5474
G01 X45.9601 Y55.8754
G01 X46.2276 Y56.2249
G01 X46.4677 Y56.5939
G01 X46.6787 Y56.9801
G01 X46.8595 Y57.3814
G01 X47.0091 Y57.7954
G01 X47.1265 Y58.2196
G01 X47.2110 Y58.6516
G01 X47.2622 Y59.0888
G01 X47.2798 Y59.5286
G01 Y120.4738
G01 X47.2612 Y120.9236
G01 X47.2074 Y121.3707
G01 X47.1187 Y121.8121
G01 X46.9958 Y122.2453
G01 X46.8392 Y122.6674
G01 X46.6500 Y123.0760
G01 X46.4295 Y123.4686
G01 X46.1788 Y123.8426
G01 X45.8996 Y124.1958
G01 X45.5935 Y124.5261
G01 X45.2625 Y124.8314
G01 X44.9087 Y125.1098
G01 X44.5341 Y125.3596
G01 X44.1410 Y125.5793
G01 X43.7320 Y125.7675
G01 X43.3094 Y125.9231
G01 X42.8760 Y126.0451
G01 X42.4344 Y126.1327
G01 X41.9872 Y126.1855
G01 X41.5373 Y126.2030
G01 X41.0874 Y126.1853
G01 X40.6402 Y126.1323
G01 X40.1986 Y126.0445
G01 X39.7652 Y125.9223
G01 X39.3428 Y125.7666
G01 X38.9338 Y125.5782
G01 X38.5409 Y125.3584
G01 X38.1663 Y125.1084
G01 X37.8126 Y124.8299
G01 X37.4817 Y124.5244
G01 X37.1758 Y124.1940
G01 X36.8968 Y123.8407
G01 X36.6462 Y123.4666
G01 X36.4258 Y123.0739
G01 X36.2368 Y122.6653
G01 X36.0804 Y122.2430
G01 X35.9576 Y121.8098
G01 X35.8691 Y121.3683
G01 X35.8155 Y120.9213
G01 X35.7971 Y120.4714
G01 Y59.5263
G01 X35.8088 Y59.1710
G01 X35.8424 Y58.8171
G01 X35.8978 Y58.4660
G01 X35.9749 Y58.1189
G01 X36.0734 Y57.7773
G01 X36.1928 Y57.4425
G01 X36.3327 Y57.1157
G01 X36.4926 Y56.7982
G01 X36.6718 Y56.4912
G01 X36.8697 Y56.1959
G01 X37.0855 Y55.9134
G01 X37.3184 Y55.6448
G01 X37.5674 Y55.3911
G01 X37.8317 Y55.1534
G01 X38.1102 Y54.9324
G01 X38.4019 Y54.7292
G01 Z-6.0000 F500
G01 X38.7795 Y54.5030 F800
G01 X39.1733 Y54.3064
G01 X39.5810 Y54.1406
G01 X40.0003 Y54.0064
G01 X40.4286 Y53.9048
G01 X40.8634 Y53.8363
G01 X41.3021 Y53.8014
G01 X41.7423 Y53.8001
G01 X42.1813 Y53.8326
G01 X42.6165 Y53.8986
G01 X43.0453 Y53.9977
G01 X43.4653 Y54.1294
G01 X43.8740 Y54.2929
G01 X44.2689 Y54.4872
G01 X44.6478 Y54.7113
G01 X45.0084 Y54.9636
G01 X45.3487 Y55.2429
G01 X45.6665 Y55.5474
G01 X45.9601 Y55.8754
G01 X46.2276 Y56.2249
G01 X46.4677 Y56.5939
G01 X46.6787 Y56.9801
G01 X46.8595 Y57.3814
G01 X47.0091 Y57.7954
G01 X47.1265 Y58.2196
G01 X47.2110 Y58.6516
G01 X47.2622 Y59.0888
G01 X47.2798 Y59.5286
G01 Y120.4738
G01 X47.2612 Y120.9236
G01 X47.2074 Y121.3707
G01 X47.1187 Y121.8121
G01 X46.9958 Y122.2453
G01 X46.8392 Y122.6674
G01 X46.6500 Y123.0760
G01 X46.4295 Y123.4686
G01 X46.1788 Y123.8426
G01 X45.8996 Y124.1958
G01 X45.5935 Y124.5261
G01 X45.2625 Y124.8314
G01 X44.9087 Y125.1098
G01 X44.5341 Y125.3596
G01 X44.1410 Y125.5793
G01 X43.7320 Y125.7675
G01 X43.3094 Y125.9231
G01 X42.8760 Y126.0451
G01 X42.4344 Y126.1327
G01 X41.9872 Y126.1855
G01 X41.5373 Y126.2030
G01 X41.0874 Y126.1853
G01 X40.6402 Y126.1323
G01 X40.1986 Y126.0445
G01 X39.7652 Y125.9223
G01 X39.3428 Y125.7666
G01 X38.9338 Y125.5782
G01 X38.5409 Y125.3584
G01 X38.1663 Y125.1084
G01 X37.8126 Y124.8299
G01 X37.4817 Y124.5244
G01 X37.1758 Y124.1940
G01 X36.8968 Y123.8407
G01 X36.6462 Y123.4666
G01 X36.4258 Y123.0739
G01 X36.2368 Y122.6653
G01 X36.0804 Y122.2430
G01 X35.9576 Y121.8098
G01 X35.8691 Y121.3683
G01 X35.8155 Y120.9213
G01 X35.7971 Y120.4714
G01 Y59.5263
G01 X35.8088 Y59.1710
G01 X35.8424 Y58.8171
G01 X35.8978 Y58.4660
G01 X35.9749 Y58.1189
G01 X36.0734 Y57.7773
G01 X36.1928 Y57.4425
G01 X36.3327 Y57.1157
G01 X36.4926 Y56.7982
G01 X36.6718 Y56.4912
G01 X36.8697 Y56.1959
G01 X37.0855 Y55.9134
G01 X37.3184 Y55.6448
G01 X37.5674 Y55.3911
G01 X37.8317 Y55.1534
G01 X38.1102 Y54.9324
G01 X38.4019 Y54.7292
G01 Z-9.0000 F500
G01 X38.7795 Y54.5030 F800
G01 X39.1733 Y54.3064
G01 X39.5810 Y54.1406
G01 X40.0003 Y54.0064
G01 X40.4286 Y53.9048
G01 X40.8634 Y53.8363
G01 X41.3021 Y53.8014
G01 X41.7423 Y53.8001
G01 X42.1813 Y53.8326
G01 X42.6165 Y53.8986
G01 X43.0453 Y53.9977
G01 X43.4653 Y54.1294
G01 X43.8740 Y54.2929
G01 X44.2689 Y54.4872
G01 X44.6478 Y54.7113
G01 X45.0084 Y54.9636
G01 X45.3487 Y55.2429
G01 X45.6665 Y55.5474
G01 X45.9601 Y55.8754
G01 X46.2276 Y56.2249
G01 X46.4677 Y56.5939
G01 X46.6787 Y56.9801
G01 X46.8595 Y57.3814
G01 X47.0091 Y57.7954
G01 X47.1265 Y58.2196
G01 X47.2110 Y58.6516
G01 X47.2622 Y59.0888
G01 X47.2798 Y59.5286
G01 Y120.4738
G01 X47.2612 Y120.9236
G01 X47.2074 Y121.3707
G01 X47.1187 Y121.8121
G01 X46.9958 Y122.2453
G01 X46.8392 Y122.6674
G01 X46.6500 Y123.0760
G01 X46.4295 Y123.4686
G01 X46.1788 Y123.8426
G01 X45.8996 Y124.1958
G01 X45.5935 Y124.5261
G01 X45.2625 Y124.8314
G01 X44.9087 Y125.1098
G01 X44.5341 Y125.3596
G01 X44.1410 Y125.5793
G01 X43.7320 Y125.7675
G01 X43.3094 Y125.9231
G01 X42.8760 Y126.0451
G01 X42.4344 Y126.1327
G01 X41.9872 Y126.1855
G01 X41.5373 Y126.2030
G01 X41.0874 Y126.1853
G01 X40.6402 Y126.1323
G01 X40.1986 Y126.0445
G01 X39.7652 Y125.9223
G01 X39.3428 Y125.7666
G01 X38.9338 Y125.5782
G01 X38.5409 Y125.3584
G01 X38.1663 Y125.1084
G01 X37.8126 Y124.8299
G01 X37.4817 Y124.5244
G01 X37.1758 Y124.1940
G01 X36.8968 Y123.8407
G01 X36.6462 Y123.4666
G01 X36.4258 Y123.0739
G01 X36.2368 Y122.6653
G01 X36.0804 Y122.2430
G01 X35.9576 Y121.8098
G01 X35.8691 Y121.3683
G01 X35.8155 Y120.9213
G01 X35.7971 Y120.4714
G01 Y59.5263
G01 X35.8088 Y59.1710
G01 X35.8424 Y58.8171
G01 X35.8978 Y58.4660
G01 X35.9749 Y58.1189
G01 X36.0734 Y57.7773
G01 X36.1928 Y57.4425
G01 X36.3327 Y57.1157
G01 X36.4926 Y56.7982
G01 X36.6718 Y56.4912
G01 X36.8697 Y56.1959
G01 X37.0855 Y55.9134
G01 X37.3184 Y55.6448
G01 X37.5674 Y55.3911
G01 X37.8317 Y55.1534
G01 X38.1102 Y54.9324
G01 X38.4019 Y54.7292
G01 Z-12.0000 F500
G01 X38.7795 Y54.5030 F800
G01 X39.1733 Y54.3064
G01 X39.5810 Y54.1406
G01 X40.0003 Y54.0064
G01 X40.4286 Y53.9048
G01 X40.8634 Y53.8363
G01 X41.3021 Y53.8014
G01 X41.7423 Y53.8001
G01 X42.1813 Y53.8326
G01 X42.6165 Y53.8986
G01 X43.0453 Y53.9977
G01 X43.4653 Y54.1294
G01 X43.8740 Y54.2929
G01 X44.2689 Y54.4872
G01 X44.6478 Y54.7113
G01 X45.0084 Y54.9636
G01 X45.3487 Y55.2429
G01 X45.6665 Y55.5474
G01 X45.9601 Y55.8754
G01 X46.2276 Y56.2249
G01 X46.4677 Y56.5939
G01 X46.6787 Y56.9801
G01 X46.8595 Y57.3814
G01 X47.0091 Y57.7954
G01 X47.1265 Y58.2196
G01 X47.2110 Y58.6516
G01 X47.2622 Y59.0888
G01 X47.2798 Y59.5286
G01 Y120.4738
G01 X47.2612 Y120.9236
G01 X47.2074 Y121.3707
G01 X47.1187 Y121.8121
G01 X46.9958 Y122.2453
G01 X46.8392 Y122.6674
G01 X46.6500 Y123.0760
G01 X46.4295 Y123.4686
G01 X46.1788 Y123.8426
G01 X45.8996 Y124.1958
G01 X45.5935 Y124.5261
G01 X45.2625 Y124.8314
G01 X44.9087 Y125.1098
G01 X44.5341 Y125.3596
G01 X44.1410 Y125.5793
G01 X43.7320 Y125.7675
G01 X43.3094 Y125.9231
G01 X42.8760 Y126.0451
G01 X42.4344 Y126.1327
G01 X41.9872 Y126.1855
G01 X41.5373 Y126.2030
G01 X41.0874 Y126.1853
G01 X40.6402 Y126.1323
G01 X40.1986 Y126.0445
G01 X39.7652 Y125.9223
G01 X39.3428 Y125.7666
G01 X38.9338 Y125.5782
G01 X38.5409 Y125.3584
G01 X38.1663 Y125.1084
G01 X37.8126 Y124.8299
G01 X37.4817 Y124.5244
G01 X37.1758 Y124.1940
G01 X36.8968 Y123.8407
G01 X36.6462 Y123.4666
G01 X36.4258 Y123.0739
G01 X36.2368 Y122.6653
G01 X36.0804 Y122.2430
G01 X35.9576 Y121.8098
G01 X35.8691 Y121.3683
G01 X35.8155 Y120.9213
G01 X35.7971 Y120.4714
G01 Y59.5263
G01 X35.8088 Y59.1710
G01 X35.8424 Y58.8171
G01 X35.8978 Y58.4660
G01 X35.9749 Y58.1189
G01 X36.0734 Y57.7773
G01 X36.1928 Y57.4425
G01 X36.3327 Y57.1157
G01 X36.4926 Y56.7982
G01 X36.6718 Y56.4912
G01 X36.8697 Y56.1959
G01 X37.0855 Y55.9134
G01 X37.3184 Y55.6448
G01 X37.5674 Y55.3911
G01 X37.8317 Y55.1534
G01 X38.1102 Y54.9324
G01 X38.4019 Y54.7292
G01 Z-15.0000 F500
G01 X38.7795 Y54.5030 F800
G01 X39.1733 Y54.3064
G01 X39.5810 Y54.1406
G01 X40.0003 Y54.0064
G01 X40.4286 Y53.9048
G01 X40.8634 Y53.8363
G01 X41.3021 Y53.8014
G01 X41.7423 Y53.8001
G01 X42.1813 Y53.8326
G01 X42.6165 Y53.8986
G01 X43.0453 Y53.9977
G01 X43.4653 Y54.1294
G01 X43.8740 Y54.2929
G01 X44.2689 Y54.4872
G01 X44.6478 Y54.7113
G01 X45.0084 Y54.9636
G01 X45.3487 Y55.2429
G01 X45.6665 Y55.5474
G01 X45.9601 Y55.8754
G01 X46.2276 Y56.2249
G01 X46.4677 Y56.5939
G01 X46.6787 Y56.9801
G01 X46.8595 Y57.3814
G01 X47.0091 Y57.7954
G01 X47.1265 Y58.2196
G01 X47.2110 Y58.6516
G01 X47.2622 Y59.0888
G01 X47.2798 Y59.5286
G01 Y120.4738
G01 X47.2612 Y120.9236
G01 X47.2074 Y121.3707
G01 X47.1187 Y121.8121
G01 X46.9958 Y122.2453
G01 X46.8392 Y122.6674
G01 X46.6500 Y123.0760
G01 X46.4295 Y123.4686
G01 X46.1788 Y123.8426
G01 X45.8996 Y124.1958
G01 X45.5935 Y124.5261
G01 X45.2625 Y124.8314
G01 X44.9087 Y125.1098
G01 X44.5341 Y125.3596
G01 X44.1410 Y125.5793
G01 X43.7320 Y125.7675
G01 X43.3094 Y125.9231
G01 X42.8760 Y126.0451
G01 X42.4344 Y126.1327
G01 X41.9872 Y126.1855
G01 X41.5373 Y126.2030
G01 X41.0874 Y126.1853
G01 X40.6402 Y126.1323
G01 X40.1986 Y126.0445
G01 X39.7652 Y125.9223
G01 X39.3428 Y125.7666
G01 X38.9338 Y125.5782
G01 X38.5409 Y125.3584
G01 X38.1663 Y125.1084
G01 X37.8126 Y124.8299
G01 X37.4817 Y124.5244
G01 X37.1758 Y124.1940
G01 X36.8968 Y123.8407
G01 X36.6462 Y123.4666
G01 X36.4258 Y123.0739
G01 X36.2368 Y122.6653
G01 X36.0804 Y122.2430
G01 X35.9576 Y121.8098
G01 X35.8691 Y121.3683
G01 X35.8155 Y120.9213
G01 X35.7971 Y120.4714
G01 Y59.5263
G01 X35.8088 Y59.1710
G01 X35.8424 Y58.8171
G01 X35.8978 Y58.4660
G01 X35.9749 Y58.1189
G01 X36.0734 Y57.7773
G01 X36.1928 Y57.4425
G01 X36.3327 Y57.1157
G01 X36.4926 Y56.7982
G01 X36.6718 Y56.4912
G01 X36.8697 Y56.1959
G01 X37.0855 Y55.9134
G01 X37.3184 Y55.6448
G01 X37.5674 Y55.3911
G01 X37.8317 Y55.1534
G01 X38.1102 Y54.9324
G01 X38.4019 Y54.7292
G01 Z-18.0000 F500
G01 X38.7795 Y54.5030 F800
G01 X39.1733 Y54.3064
G01 X39.5810 Y54.1406
G01 X40.0003 Y54.0064
G01 X40.4286 Y53.9048
G01 X40.8634 Y53.8363
G01 X41.3021 Y53.8014
G01 X41.7423 Y53.8001
G01 X42.1813 Y53.8326
G01 X42.6165 Y53.8986
G01 X43.0453 Y53.9977
G01 X43.4653 Y54.1294
G01 X43.8740 Y54.2929
G01 X44.2689 Y54.4872
G01 X44.6478 Y54.7113
G01 X45.0084 Y54.9636
G01 X45.3487 Y55.2429
G01 X45.6665 Y55.5474
G01 X45.9601 Y55.8754
G01 X46.2276 Y56.2249
G01 X46.4677 Y56.5939
G01 X46.6787 Y56.9801
G01 X46.8595 Y57.3814
G01 X47.0091 Y57.7954
G01 X47.1265 Y58.2196
G01 X47.2110 Y58.6516
G01 X47.2622 Y59.0888
G01 X47.2798 Y59.5286
G01 Y120.4738
G01 X47.2612 Y120.9236
G01 X47.2074 Y121.3707
G01 X47.1187 Y121.8121
G01 X46.9958 Y122.2453
G01 X46.8392 Y122.6674
G01 X46.6500 Y123.0760
G01 X46.4295 Y123.4686
G01 X46.1788 Y123.8426
G01 X45.8996 Y124.1958
G01 X45.5935 Y124.5261
G01 X45.2625 Y124.8314
G01 X44.9087 Y125.1098
G01 X44.5341 Y125.3596
G01 X44.1410 Y125.5793
G01 X43.7320 Y125.7675
G01 X43.3094 Y125.9231
G01 X42.8760 Y126.0451
G01 X42.4344 Y126.1327
G01 X41.9872 Y126.1855
G01 X41.5373 Y126.2030
G01 X41.0874 Y126.1853
G01 X40.6402 Y126.1323
G01 X40.1986 Y126.0445
G01 X39.7652 Y125.9223
G01 X39.3428 Y125.7666
G01 X38.9338 Y125.5782
G01 X38.5409 Y125.3584
G01 X38.1663 Y125.1084
G01 X37.8126 Y124.8299
G01 X37.4817 Y124.5244
G01 X37.1758 Y124.1940
G01 X36.8968 Y123.8407
G01 X36.6462 Y123.4666
G01 X36.4258 Y123.0739
G01 X36.2368 Y122.6653
G01 X36.0804 Y122.2430
G01 X35.9576 Y121.8098
G01 X35.8691 Y121.3683
G01 X35.8155 Y120.9213
G01 X35.7971 Y120.4714
G01 Y59.5263
G01 X35.8088 Y59.1710
G01 X35.8424 Y58.8171
G01 X35.8978 Y58.4660
G01 X35.9749 Y58.1189
G01 X36.0734 Y57.7773
G01 X36.1928 Y57.4425
G01 X36.3327 Y57.1157
G01 X36.4926 Y56.7982
G01 X36.6718 Y56.4912
G01 X36.8697 Y56.1959
G01 X37.0855 Y55.9134
G01 X37.3184 Y55.6448
G01 X37.5674 Y55.3911
G01 X37.8317 Y55.1534
G01 X38.1102 Y54.9324
G01 X38.4019 Y54.7292
G01 Z-18.5000 F500
G01 X38.7795 Y54.5030 F800
G01 X39.1733 Y54.3064
G01 X39.5810 Y54.1406
G01 X40.0003 Y54.0064
G01 X40.4286 Y53.9048
G01 X40.8634 Y53.8363
G01 X41.3021 Y53.8014
G01 X41.7423 Y53.8001
G01 X42.1813 Y53.8326
G01 X42.6165 Y53.8986
G01 X43.0453 Y53.9977
G01 X43.4653 Y54.1294
G01 X43.8740 Y54.2929
G01 X44.2689 Y54.4872
G01 X44.6478 Y54.7113
G01 X45.0084 Y54.9636
G01 X45.3487 Y55.2429
G01 X45.6665 Y55.5474
G01 X45.9601 Y55.8754
G01 X46.2276 Y56.2249
G01 X46.4677 Y56.5939
G01 X46.6787 Y56.9801
G01 X46.8595 Y57.3814
G01 X47.0091 Y57.7954
G01 X47.1265 Y58.2196
G01 X47.2110 Y58.6516
G01 X47.2622 Y59.0888
G01 X47.2798 Y59.5286
G01 Y120.4738
G01 X47.2612 Y120.9236
G01 X47.2074 Y121.3707
G01 X47.1187 Y121.8121
G01 X46.9958 Y122.2453
G01 X46.8392 Y122.6674
G01 X46.6500 Y123.0760
G01 X46.4295 Y123.4686
G01 X46.1788 Y123.8426
G01 X45.8996 Y124.1958
G01 X45.5935 Y124.5261
G01 X45.2625 Y124.8314
G01 X44.9087 Y125.1098
G01 X44.5341 Y125.3596
G01 X44.1410 Y125.5793
G01 X43.7320 Y125.7675
G01 X43.3094 Y125.9231
G01 X42.8760 Y126.0451
G01 X42.4344 Y126.1327
G01 X41.9872 Y126.1855
G01 X41.5373 Y126.2030
G01 X41.0874 Y126.1853
G01 X40.6402 Y126.1323
G01 X40.1986 Y126.0445
G01 X39.7652 Y125.9223
G01 X39.3428 Y125.7666
G01 X38.9338 Y125.5782
G01 X38.5409 Y125.3584
G01 X38.1663 Y125.1084
G01 X37.8126 Y124.8299
G01 X37.4817 Y124.5244
G01 X37.1758 Y124.1940
G01 X36.8968 Y123.8407
G01 X36.6462 Y123.4666
G01 X36.4258 Y123.0739
G01 X36.2368 Y122.6653
G01 X36.0804 Y122.2430
G01 X35.9576 Y121.8098
G01 X35.8691 Y121.3683
G01 X35.8155 Y120.9213
G01 X35.7971 Y120.4714
G01 Y59.5263
G01 X35.8088 Y59.1710
G01 X35.8424 Y58.8171
G01 X35.8978 Y58.4660
G01 X35.9749 Y58.1189
G01 X36.0734 Y57.7773
G01 X36.1928 Y57.4425
G01 X36.3327 Y57.1157
G01 X36.4926 Y56.7982
G01 X36.6718 Y56.4912
G01 X36.8697 Y56.1959
G01 X37.0855 Y55.9134
G01 X37.3184 Y55.6448
G01 X37.5674 Y55.3911
G01 X37.8317 Y55.1534
G01 X38.1102 Y54.9324
G01 X38.4019 Y54.7292
G00 Z2.0000


;No. 3: Part 3
G00 X87.9794 Y56.3724 Z2.0000
G00 Z0.5000
G01 Z0.0000 F500
G01 Z-3.0000
G01 X88.2472 Y56.0003 F800
G01 X88.5438 Y55.6507
G01 X88.8675 Y55.3259
G01 X89.2160 Y55.0280
G01 X89.5871 Y54.7588
G01 X89.9786 Y54.5201
G01 X90.3878 Y54.3134
G01 X90.8123 Y54.1401
G01 X91.2492 Y54.0011
G01 X91.6958 Y53.8974
G01 X92.1493 Y53.8298
G01 X92.6067 Y53.7985
G01 X93.0651 Y53.8038
G01 X93.5217 Y53.8457
G01 X93.9735 Y53.9239
G01 X94.4176 Y54.0378
G01 X94.8512 Y54.1869
G01 X95.2715 Y54.3701
G01 X95.6758 Y54.5862
G01 X96.0616 Y54.8339
G01 X96.4265 Y55.1116
G01 X96.7679 Y55.4176
G01 X97.0839 Y55.7498
G01 X97.3724 Y56.1061
G01 X97.6315 Y56.4844
G01 X97.8596 Y56.8821
G01 X98.0553 Y57.2967
G01 X98.2172 Y57.7257
G01 X98.3444 Y58.1662
G01 X98.4361 Y58.6154
G01 X98.4916 Y59.0705
G01 X98.5106 Y59.5286
G01 Y120.4738
G01 X98.4920 Y120.9231
G01 X98.4383 Y121.3696
G01 X98.3499 Y121.8105
G01 X98.2272 Y122.2431
G01 X98.0710 Y122.6648
G01 X97.8823 Y123.0730
G01 X97.6622 Y123.4652
G01 X97.4121 Y123.8390
G01 X97.1335 Y124.1920
G01 X96.8281 Y124.5221
G01 X96.4979 Y124.8273
G01 X96.1447 Y125.1058
G01 X95.7709 Y125.3557
G01 X95.3786 Y125.5757
G01 X94.9704 Y125.7642
G01 X94.5486 Y125.9202
G01 X94.1159 Y126.0427
G01 X93.6749 Y126.1310
G01 X93.2284 Y126.1845
G01 X92.7791 Y126.2029
G01 X59.5262
G01 X59.0764 Y126.1843
G01 X58.6293 Y126.1305
G01 X58.1879 Y126.0418
G01 X57.7547 Y125.9188
G01 X57.3326 Y125.7623
G01 X56.9240 Y125.5731
G01 X56.5314 Y125.3525
G01 X56.1574 Y125.1019
G01 X55.8042 Y124.8226
G01 X55.4739 Y124.5166
G01 X55.1686 Y124.1856
G01 X54.8902 Y123.8317
G01 X54.6404 Y123.4571
G01 X54.4207 Y123.0641
G01 X54.2325 Y122.6551
G01 X54.0769 Y122.2325
G01 X53.9549 Y121.7991
G01 X53.8673 Y121.3574
G01 X53.8145 Y120.9103
G01 X53.7970 Y120.4604
G01 X53.8147 Y120.0104
G01 X53.8677 Y119.5633
G01 X53.9555 Y119.1217
G01 X54.0777 Y118.6883
G01 X54.2334 Y118.2658
G01 X54.4218 Y117.8569
G01 X54.6416 Y117.4639
G01 X54.8916 Y117.0894
G01 X55.1701 Y116.7357
G01 X55.4756 Y116.4048
G01 X55.8060 Y116.0989
G01 X56.1593 Y115.8198
G01 X56.5334 Y115.5693
G01 X56.9261 Y115.3489
G01 X57.3347 Y115.1599
G01 X57.7570 Y115.0035
G01 X58.1902 Y114.8807
G01 X58.6317 Y114.7922
G01 X59.0787 Y114.7386
G01 X59.5286 Y114.7202
G01 X87.0279
G01 Y59.5263
G01 X87.0436 Y59.1090
G01 X87.0897 Y58.6939
G01 X87.1659 Y58.2834
G01 X87.2718 Y57.8794
G01 X87.4069 Y57.4843
G01 X87.5705 Y57.1001
G01 X87.7617 Y56.7288
G01 X87.9794 Y56.3724
G01 Z-6.0000 F500
G01 X88.2472 Y56.0003 F800
G01 X88.5438 Y55.6507
G01 X88.8675 Y55.3259
G01 X89.2160 Y55.0280
G01 X89.5871 Y54.7588
G01 X89.9786 Y54.5201
G01 X90.3878 Y54.3134
G01 X90.8123 Y54.1401
G01 X91.2492 Y54.0011
G01 X91.6958 Y53.8974
G01 X92.1493 Y53.8298
G01 X92.6067 Y53.7985
G01 X93.0651 Y53.8038
G01 X93.5217 Y53.8457
G01 X93.9735 Y53.9239
G01 X94.4176 Y54.0378
G01 X94.8512 Y54.1869
G01 X95.2715 Y54.3701
G01 X95.6758 Y54.5862
G01 X96.0616 Y54.8339
G01 X96.4265 Y55.1116
G01 X96.7679 Y55.4176
G01 X97.0839 Y55.7498
G01 X97.3724 Y56.1061
G01 X97.6315 Y56.4844
G01 X97.8596 Y56.8821
G01 X98.0553 Y57.2967
G01 X98.2172 Y57.7257
G01 X98.3444 Y58.1662
G01 X98.4361 Y58.6154
G01 X98.4916 Y59.0705
G01 X98.5106 Y59.5286
G01 Y120.4738
G01 X98.4920 Y120.9231
G01 X98.4383 Y121.3696
G01 X98.3499 Y121.8105
G01 X98.2272 Y122.2431
G01 X98.0710 Y122.6648
G01 X97.8823 Y123.0730
G01 X97.6622 Y123.4652
G01 X97.4121 Y123.8390
G01 X97.1335 Y124.1920
G01 X96.8281 Y124.5221
G01 X96.4979 Y124.8273
G01 X96.1447 Y125.1058
G01 X95.7709 Y125.3557
G01 X95.3786 Y125.5757
G01 X94.9704 Y125.7642
G01 X94.5486 Y125.9202
G01 X94.1159 Y126.0427
G01 X93.6749 Y126.1310
G01 X93.2284 Y126.1845
G01 X92.7791 Y126.2029
G01 X59.5262
G01 X59.0764 Y126.1843
G01 X58.6293 Y126.1305
G01 X58.1879 Y126.0418
G01 X57.7547 Y125.9188
G01 X57.3326 Y125.7623
G01 X56.9240 Y125.5731
G01 X56.5314 Y125.3525
G01 X56.1574 Y125.1019
G01 X55.8042 Y124.8226
G01 X55.4739 Y124.5166
G01 X55.1686 Y124.1856
G01 X54.8902 Y123.8317
G01 X54.6404 Y123.4571
G01 X54.4207 Y123.0641
G01 X54.2325 Y122.6551
G01 X54.0769 Y122.2325
G01 X53.9549 Y121.7991
G01 X53.8673 Y121.3574
G01 X53.8145 Y120.9103
G01 X53.7970 Y120.4604
G01 X53.8147 Y120.0104
G01 X53.8677 Y119.5633
G01 X53.9555 Y119.1217
G01 X54.0777 Y118.6883
G01 X54.2334 Y118.2658
G01 X54.4218 Y117.8569
G01 X54.6416 Y117.4639
G01 X54.8916 Y117.0894
G01 X55.1701 Y116.7357
G01 X55.4756 Y116.4048
G01 X55.8060 Y116.0989
G01 X56.1593 Y115.8198
G01 X56.5334 Y115.5693
G01 X56.9261 Y115.3489
G01 X57.3347 Y115.1599
G01 X57.7570 Y115.0035
G01 X58.1902 Y114.8807
G01 X58.6317 Y114.7922
G01 X59.0787 Y114.7386
G01 X59.5286 Y114.7202
G01 X87.0279
G01 Y59.5263
G01 X87.0436 Y59.1090
G01 X87.0897 Y58.6939
G01 X87.1659 Y58.2834
G01 X87.2718 Y57.8794
G01 X87.4069 Y57.4843
G01 X87.5705 Y57.1001
G01 X87.7617 Y56.7288
G01 X87.9794 Y56.3724
G01 Z-9.0000 F500
G01 X88.2472 Y56.0003 F800
G01 X88.5438 Y55.6507
G01 X88.8675 Y55.3259
G01 X89.2160 Y55.0280
G01 X89.5871 Y54.7588
G01 X89.9786 Y54.5201
G01 X90.3878 Y54.3134
G01 X90.8123 Y54.1401
G01 X91.2492 Y54.0011
G01 X91.6958 Y53.8974
G01 X92.1493 Y53.8298
G01 X92.6067 Y53.7985
G01 X93.0651 Y53.8038
G01 X93.5217 Y53.8457
G01 X93.9735 Y53.9239
G01 X94.4176 Y54.0378
G01 X94.8512 Y54.1869
G01 X95.2715 Y54.3701
G01 X95.6758 Y54.5862
G01 X96.0616 Y54.8339
G01 X96.4265 Y55.1116
G01 X96.7679 Y55.4176
G01 X97.0839 Y55.7498
G01 X97.3724 Y56.1061
G01 X97.6315 Y56.4844
G01 X97.8596 Y56.8821
G01 X98.0553 Y57.2967
G01 X98.2172 Y57.7257
G01 X98.3444 Y58.1662
G01 X98.4361 Y58.6154
G01 X98.4916 Y59.0705
G01 X98.5106 Y59.5286
G01 Y120.4738
G01 X98.4920 Y120.9231
G01 X98.4383 Y121.3696
G01 X98.3499 Y121.8105
G01 X98.2272 Y122.2431
G01 X98.0710 Y122.6648
G01 X97.8823 Y123.0730
G01 X97.6622 Y123.4652
G01 X97.4121 Y123.8390
G01 X97.1335 Y124.1920
G01 X96.8281 Y124.5221
G01 X96.4979 Y124.8273
G01 X96.1447 Y125.1058
G01 X95.7709 Y125.3557
G01 X95.3786 Y125.5757
G01 X94.9704 Y125.7642
G01 X94.5486 Y125.9202
G01 X94.1159 Y126.0427
G01 X93.6749 Y126.1310
G01 X93.2284 Y126.1845
G01 X92.7791 Y126.2029
G01 X59.5262
G01 X59.0764 Y126.1843
G01 X58.6293 Y126.1305
G01 X58.1879 Y126.0418
G01 X57.7547 Y125.9188
G01 X57.3326 Y125.7623
G01 X56.9240 Y125.5731
G01 X56.5314 Y125.3525
G01 X56.1574 Y125.1019
G01 X55.8042 Y124.8226
G01 X55.4739 Y124.5166
G01 X55.1686 Y124.1856
G01 X54.8902 Y123.8317
G01 X54.6404 Y123.4571
G01 X54.4207 Y123.0641
G01 X54.2325 Y122.6551
G01 X54.0769 Y122.2325
G01 X53.9549 Y121.7991
G01 X53.8673 Y121.3574
G01 X53.8145 Y120.9103
G01 X53.7970 Y120.4604
G01 X53.8147 Y120.0104
G01 X53.8677 Y119.5633
G01 X53.9555 Y119.1217
G01 X54.0777 Y118.6883
G01 X54.2334 Y118.2658
G01 X54.4218 Y117.8569
G01 X54.6416 Y117.4639
G01 X54.8916 Y117.0894
G01 X55.1701 Y116.7357
G01 X55.4756 Y116.4048
G01 X55.8060 Y116.0989
G01 X56.1593 Y115.8198
G01 X56.5334 Y115.5693
G01 X56.9261 Y115.3489
G01 X57.3347 Y115.1599
G01 X57.7570 Y115.0035
G01 X58.1902 Y114.8807
G01 X58.6317 Y114.7922
G01 X59.0787 Y114.7386
G01 X59.5286 Y114.7202
G01 X87.0279
G01 Y59.5263
G01 X87.0436 Y59.1090
G01 X87.0897 Y58.6939
G01 X87.1659 Y58.2834
G01 X87.2718 Y57.8794
G01 X87.4069 Y57.4843
G01 X87.5705 Y57.1001
G01 X87.7617 Y56.7288
G01 X87.9794 Y56.3724
G01 Z-12.0000 F500
G01 X88.2472 Y56.0003 F800
G01 X88.5438 Y55.6507
G01 X88.8675 Y55.3259
G01 X89.2160 Y55.0280
G01 X89.5871 Y54.7588
G01 X89.9786 Y54.5201
G01 X90.3878 Y54.3134
G01 X90.8123 Y54.1401
G01 X91.2492 Y54.0011
G01 X91.6958 Y53.8974
G01 X92.1493 Y53.8298
G01 X92.6067 Y53.7985
G01 X93.0651 Y53.8038
G01 X93.5217 Y53.8457
G01 X93.9735 Y53.9239
G01 X94.4176 Y54.0378
G01 X94.8512 Y54.1869
G01 X95.2715 Y54.3701
G01 X95.6758 Y54.5862
G01 X96.0616 Y54.8339
G01 X96.4265 Y55.1116
G01 X96.7679 Y55.4176
G01 X97.0839 Y55.7498
G01 X97.3724 Y56.1061
G01 X97.6315 Y56.4844
G01 X97.8596 Y56.8821
G01 X98.0553 Y57.2967
G01 X98.2172 Y57.7257
G01 X98.3444 Y58.1662
G01 X98.4361 Y58.6154
G01 X98.4916 Y59.0705
G01 X98.5106 Y59.5286
G01 Y120.4738
G01 X98.4920 Y120.9231
G01 X98.4383 Y121.3696
G01 X98.3499 Y121.8105
G01 X98.2272 Y122.2431
G01 X98.0710 Y122.6648
G01 X97.8823 Y123.0730
G01 X97.6622 Y123.4652
G01 X97.4121 Y123.8390
G01 X97.1335 Y124.1920
G01 X96.8281 Y124.5221
G01 X96.4979 Y124.8273
G01 X96.1447 Y125.1058
G01 X95.7709 Y125.3557
G01 X95.3786 Y125.5757
G01 X94.9704 Y125.7642
G01 X94.5486 Y125.9202
G01 X94.1159 Y126.0427
G01 X93.6749 Y126.1310
G01 X93.2284 Y126.1845
G01 X92.7791 Y126.2029
G01 X59.5262
G01 X59.0764 Y126.1843
G01 X58.6293 Y126.1305
G01 X58.1879 Y126.0418
G01 X57.7547 Y125.9188
G01 X57.3326 Y125.7623
G01 X56.9240 Y125.5731
G01 X56.5314 Y125.3525
G01 X56.1574 Y125.1019
G01 X55.8042 Y124.8226
G01 X55.4739 Y124.5166
G01 X55.1686 Y124.1856
G01 X54.8902 Y123.8317
G01 X54.6404 Y123.4571
G01 X54.4207 Y123.0641
G01 X54.2325 Y122.6551
G01 X54.0769 Y122.2325
G01 X53.9549 Y121.7991
G01 X53.8673 Y121.3574
G01 X53.8145 Y120.9103
G01 X53.7970 Y120.4604
G01 X53.8147 Y120.0104
G01 X53.8677 Y119.5633
G01 X53.9555 Y119.1217
G01 X54.0777 Y118.6883
G01 X54.2334 Y118.2658
G01 X54.4218 Y117.8569
G01 X54.6416 Y117.4639
G01 X54.8916 Y117.0894
G01 X55.1701 Y116.7357
G01 X55.4756 Y116.4048
G01 X55.8060 Y116.0989
G01 X56.1593 Y115.8198
G01 X56.5334 Y115.5693
G01 X56.9261 Y115.3489
G01 X57.3347 Y115.1599
G01 X57.7570 Y115.0035
G01 X58.1902 Y114.8807
G01 X58.6317 Y114.7922
G01 X59.0787 Y114.7386
G01 X59.5286 Y114.7202
G01 X87.0279
G01 Y59.5263
G01 X87.0436 Y59.1090
G01 X87.0897 Y58.6939
G01 X87.1659 Y58.2834
G01 X87.2718 Y57.8794
G01 X87.4069 Y57.4843
G01 X87.5705 Y57.1001
G01 X87.7617 Y56.7288
G01 X87.9794 Y56.3724
G01 Z-15.0000 F500
G01 X88.2472 Y56.0003 F800
G01 X88.5438 Y55.6507
G01 X88.8675 Y55.3259
G01 X89.2160 Y55.0280
G01 X89.5871 Y54.7588
G01 X89.9786 Y54.5201
G01 X90.3878 Y54.3134
G01 X90.8123 Y54.1401
G01 X91.2492 Y54.0011
G01 X91.6958 Y53.8974
G01 X92.1493 Y53.8298
G01 X92.6067 Y53.7985
G01 X93.0651 Y53.8038
G01 X93.5217 Y53.8457
G01 X93.9735 Y53.9239
G01 X94.4176 Y54.0378
G01 X94.8512 Y54.1869
G01 X95.2715 Y54.3701
G01 X95.6758 Y54.5862
G01 X96.0616 Y54.8339
G01 X96.4265 Y55.1116
G01 X96.7679 Y55.4176
G01 X97.0839 Y55.7498
G01 X97.3724 Y56.1061
G01 X97.6315 Y56.4844
G01 X97.8596 Y56.8821
G01 X98.0553 Y57.2967
G01 X98.2172 Y57.7257
G01 X98.3444 Y58.1662
G01 X98.4361 Y58.6154
G01 X98.4916 Y59.0705
G01 X98.5106 Y59.5286
G01 Y120.4738
G01 X98.4920 Y120.9231
G01 X98.4383 Y121.3696
G01 X98.3499 Y121.8105
G01 X98.2272 Y122.2431
G01 X98.0710 Y122.6648
G01 X97.8823 Y123.0730
G01 X97.6622 Y123.4652
G01 X97.4121 Y123.8390
G01 X97.1335 Y124.1920
G01 X96.8281 Y124.5221
G01 X96.4979 Y124.8273
G01 X96.1447 Y125.1058
G01 X95.7709 Y125.3557
G01 X95.3786 Y125.5757
G01 X94.9704 Y125.7642
G01 X94.5486 Y125.9202
G01 X94.1159 Y126.0427
G01 X93.6749 Y126.1310
G01 X93.2284 Y126.1845
G01 X92.7791 Y126.2029
G01 X59.5262
G01 X59.0764 Y126.1843
G01 X58.6293 Y126.1305
G01 X58.1879 Y126.0418
G01 X57.7547 Y125.9188
G01 X57.3326 Y125.7623
G01 X56.9240 Y125.5731
G01 X56.5314 Y125.3525
G01 X56.1574 Y125.1019
G01 X55.8042 Y124.8226
G01 X55.4739 Y124.5166
G01 X55.1686 Y124.1856
G01 X54.8902 Y123.8317
G01 X54.6404 Y123.4571
G01 X54.4207 Y123.0641
G01 X54.2325 Y122.6551
G01 X54.0769 Y122.2325
G01 X53.9549 Y121.7991
G01 X53.8673 Y121.3574
G01 X53.8145 Y120.9103
G01 X53.7970 Y120.4604
G01 X53.8147 Y120.0104
G01 X53.8677 Y119.5633
G01 X53.9555 Y119.1217
G01 X54.0777 Y118.6883
G01 X54.2334 Y118.2658
G01 X54.4218 Y117.8569
G01 X54.6416 Y117.4639
G01 X54.8916 Y117.0894
G01 X55.1701 Y116.7357
G01 X55.4756 Y116.4048
G01 X55.8060 Y116.0989
G01 X56.1593 Y115.8198
G01 X56.5334 Y115.5693
G01 X56.9261 Y115.3489
G01 X57.3347 Y115.1599
G01 X57.7570 Y115.0035
G01 X58.1902 Y114.8807
G01 X58.6317 Y114.7922
G01 X59.0787 Y114.7386
G01 X59.5286 Y114.7202
G01 X87.0279
G01 Y59.5263
G01 X87.0436 Y59.1090
G01 X87.0897 Y58.6939
G01 X87.1659 Y58.2834
G01 X87.2718 Y57.8794
G01 X87.4069 Y57.4843
G01 X87.5705 Y57.1001
G01 X87.7617 Y56.7288
G01 X87.9794 Y56.3724
G01 Z-18.0000 F500
G01 X88.2472 Y56.0003 F800
G01 X88.5438 Y55.6507
G01 X88.8675 Y55.3259
G01 X89.2160 Y55.0280
G01 X89.5871 Y54.7588
G01 X89.9786 Y54.5201
G01 X90.3878 Y54.3134
G01 X90.8123 Y54.1401
G01 X91.2492 Y54.0011
G01 X91.6958 Y53.8974
G01 X92.1493 Y53.8298
G01 X92.6067 Y53.7985
G01 X93.0651 Y53.8038
G01 X93.5217 Y53.8457
G01 X93.9735 Y53.9239
G01 X94.4176 Y54.0378
G01 X94.8512 Y54.1869
G01 X95.2715 Y54.3701
G01 X95.6758 Y54.5862
G01 X96.0616 Y54.8339
G01 X96.4265 Y55.1116
G01 X96.7679 Y55.4176
G01 X97.0839 Y55.7498
G01 X97.3724 Y56.1061
G01 X97.6315 Y56.4844
G01 X97.8596 Y56.8821
G01 X98.0553 Y57.2967
G01 X98.2172 Y57.7257
G01 X98.3444 Y58.1662
G01 X98.4361 Y58.6154
G01 X98.4916 Y59.0705
G01 X98.5106 Y59.5286
G01 Y120.4738
G01 X98.4920 Y120.9231
G01 X98.4383 Y121.3696
G01 X98.3499 Y121.8105
G01 X98.2272 Y122.2431
G01 X98.0710 Y122.6648
G01 X97.8823 Y123.0730
G01 X97.6622 Y123.4652
G01 X97.4121 Y123.8390
G01 X97.1335 Y124.1920
G01 X96.8281 Y124.5221
G01 X96.4979 Y124.8273
G01 X96.1447 Y125.1058
G01 X95.7709 Y125.3557
G01 X95.3786 Y125.5757
G01 X94.9704 Y125.7642
G01 X94.5486 Y125.9202
G01 X94.1159 Y126.0427
G01 X93.6749 Y126.1310
G01 X93.2284 Y126.1845
G01 X92.7791 Y126.2029
G01 X59.5262
G01 X59.0764 Y126.1843
G01 X58.6293 Y126.1305
G01 X58.1879 Y126.0418
G01 X57.7547 Y125.9188
G01 X57.3326 Y125.7623
G01 X56.9240 Y125.5731
G01 X56.5314 Y125.3525
G01 X56.1574 Y125.1019
G01 X55.8042 Y124.8226
G01 X55.4739 Y124.5166
G01 X55.1686 Y124.1856
G01 X54.8902 Y123.8317
G01 X54.6404 Y123.4571
G01 X54.4207 Y123.0641
G01 X54.2325 Y122.6551
G01 X54.0769 Y122.2325
G01 X53.9549 Y121.7991
G01 X53.8673 Y121.3574
G01 X53.8145 Y120.9103
G01 X53.7970 Y120.4604
G01 X53.8147 Y120.0104
G01 X53.8677 Y119.5633
G01 X53.9555 Y119.1217
G01 X54.0777 Y118.6883
G01 X54.2334 Y118.2658
G01 X54.4218 Y117.8569
G01 X54.6416 Y117.4639
G01 X54.8916 Y117.0894
G01 X55.1701 Y116.7357
G01 X55.4756 Y116.4048
G01 X55.8060 Y116.0989
G01 X56.1593 Y115.8198
G01 X56.5334 Y115.5693
G01 X56.9261 Y115.3489
G01 X57.3347 Y115.1599
G01 X57.7570 Y115.0035
G01 X58.1902 Y114.8807
G01 X58.6317 Y114.7922
G01 X59.0787 Y114.7386
G01 X59.5286 Y114.7202
G01 X87.0279
G01 Y59.5263
G01 X87.0436 Y59.1090
G01 X87.0897 Y58.6939
G01 X87.1659 Y58.2834
G01 X87.2718 Y57.8794
G01 X87.4069 Y57.4843
G01 X87.5705 Y57.1001
G01 X87.7617 Y56.7288
G01 X87.9794 Y56.3724
G01 Z-18.5000 F500
G01 X88.2472 Y56.0003 F800
G01 X88.5438 Y55.6507
G01 X88.8675 Y55.3259
G01 X89.2160 Y55.0280
G01 X89.5871 Y54.7588
G01 X89.9786 Y54.5201
G01 X90.3878 Y54.3134
G01 X90.8123 Y54.1401
G01 X91.2492 Y54.0011
G01 X91.6958 Y53.8974
G01 X92.1493 Y53.8298
G01 X92.6067 Y53.7985
G01 X93.0651 Y53.8038
G01 X93.5217 Y53.8457
G01 X93.9735 Y53.9239
G01 X94.4176 Y54.0378
G01 X94.8512 Y54.1869
G01 X95.2715 Y54.3701
G01 X95.6758 Y54.5862
G01 X96.0616 Y54.8339
G01 X96.4265 Y55.1116
G01 X96.7679 Y55.4176
G01 X97.0839 Y55.7498
G01 X97.3724 Y56.1061
G01 X97.6315 Y56.4844
G01 X97.8596 Y56.8821
G01 X98.0553 Y57.2967
G01 X98.2172 Y57.7257
G01 X98.3444 Y58.1662
G01 X98.4361 Y58.6154
G01 X98.4916 Y59.0705
G01 X98.5106 Y59.5286
G01 Y120.4738
G01 X98.4920 Y120.9231
G01 X98.4383 Y121.3696
G01 X98.3499 Y121.8105
G01 X98.2272 Y122.2431
G01 X98.0710 Y122.6648
G01 X97.8823 Y123.0730
G01 X97.6622 Y123.4652
G01 X97.4121 Y123.8390
G01 X97.1335 Y124.1920
G01 X96.8281 Y124.5221
G01 X96.4979 Y124.8273
G01 X96.1447 Y125.1058
G01 X95.7709 Y125.3557
G01 X95.3786 Y125.5757
G01 X94.9704 Y125.7642
G01 X94.5486 Y125.9202
G01 X94.1159 Y126.0427
G01 X93.6749 Y126.1310
G01 X93.2284 Y126.1845
G01 X92.7791 Y126.2029
G01 X59.5262
G01 X59.0764 Y126.1843
G01 X58.6293 Y126.1305
G01 X58.1879 Y126.0418
G01 X57.7547 Y125.9188
G01 X57.3326 Y125.7623
G01 X56.9240 Y125.5731
G01 X56.5314 Y125.3525
G01 X56.1574 Y125.1019
G01 X55.8042 Y124.8226
G01 X55.4739 Y124.5166
G01 X55.1686 Y124.1856
G01 X54.8902 Y123.8317
G01 X54.6404 Y123.4571
G01 X54.4207 Y123.0641
G01 X54.2325 Y122.6551
G01 X54.0769 Y122.2325
G01 X53.9549 Y121.7991
G01 X53.8673 Y121.3574
G01 X53.8145 Y120.9103
G01 X53.7970 Y120.4604
G01 X53.8147 Y120.0104
G01 X53.8677 Y119.5633
G01 X53.9555 Y119.1217
G01 X54.0777 Y118.6883
G01 X54.2334 Y118.2658
G01 X54.4218 Y117.8569
G01 X54.6416 Y117.4639
G01 X54.8916 Y117.0894
G01 X55.1701 Y116.7357
G01 X55.4756 Y116.4048
G01 X55.8060 Y116.0989
G01 X56.1593 Y115.8198
G01 X56.5334 Y115.5693
G01 X56.9261 Y115.3489
G01 X57.3347 Y115.1599
G01 X57.7570 Y115.0035
G01 X58.1902 Y114.8807
G01 X58.6317 Y114.7922
G01 X59.0787 Y114.7386
G01 X59.5286 Y114.7202
G01 X87.0279
G01 Y59.5263
G01 X87.0436 Y59.1090
G01 X87.0897 Y58.6939
G01 X87.1659 Y58.2834
G01 X87.2718 Y57.8794
G01 X87.4069 Y57.4843
G01 X87.5705 Y57.1001
G01 X87.7617 Y56.7288
G01 X87.9794 Y56.3724
G00 Z2.0000


;No. 4: Part 4
G00 X106.4224 Y86.2381 Z2.0000
G00 Z0.5000
G01 Z0.0000 F500
G01 Z-3.0000
G01 X106.4892 Y86.1623 F800
G01 X106.5573 Y86.0877
G01 X106.6267 Y86.0143
G01 X106.6974 Y85.9421
G01 X137.1776 Y55.4619
G01 X137.5095 Y55.1570
G01 X137.8642 Y54.8789
G01 X138.2396 Y54.6296
G01 X138.6334 Y54.4104
G01 X139.0431 Y54.2227
G01 X139.4663 Y54.0677
G01 X139.9003 Y53.9463
G01 X140.3426 Y53.8593
G01 X140.7902 Y53.8072
G01 X141.2406 Y53.7903
G01 X141.6909 Y53.8088
G01 X142.1384 Y53.8625
G01 X142.5803 Y53.9511
G01 X143.0139 Y54.0740
G01 X143.4365 Y54.2305
G01 X143.8456 Y54.4196
G01 X144.2386 Y54.6403
G01 X144.6131 Y54.8910
G01 X144.9668 Y55.1703
G01 X145.2976 Y55.4764
G01 X145.6034 Y55.8075
G01 X145.8822 Y56.1616
G01 X146.1325 Y56.5364
G01 X146.3527 Y56.9297
G01 X146.5413 Y57.3390
G01 X146.6973 Y57.7618
G01 X146.8198 Y58.1955
G01 X146.9078 Y58.6375
G01 X146.9610 Y59.0851
G01 X146.9789 Y59.5354
G01 X146.9615 Y59.9858
G01 X146.9089 Y60.4334
G01 X146.8214 Y60.8755
G01 X146.6995 Y61.3094
G01 X146.5440 Y61.7324
G01 X146.3558 Y62.1419
G01 X146.1361 Y62.5354
G01 X145.8863 Y62.9106
G01 X145.6078 Y63.2649
G01 X145.3025 Y63.5964
G01 X118.8892 Y90.0000
G01 X145.3048 Y116.4059
G01 X145.6101 Y116.7376
G01 X145.8885 Y117.0923
G01 X146.1382 Y117.4676
G01 X146.3577 Y117.8613
G01 X146.5457 Y118.2711
G01 X146.7010 Y118.6943
G01 X146.8227 Y119.1284
G01 X146.9100 Y119.5706
G01 X146.9623 Y120.0184
G01 X146.9794 Y120.4689
G01 X146.9612 Y120.9193
G01 X146.9077 Y121.3670
G01 X146.8193 Y121.8090
G01 X146.6965 Y122.2428
G01 X146.5402 Y122.6656
G01 X146.3511 Y123.0749
G01 X146.1306 Y123.4681
G01 X145.8800 Y123.8428
G01 X145.6007 Y124.1967
G01 X145.2946 Y124.5276
G01 X144.9635 Y124.8335
G01 X144.6094 Y125.1126
G01 X144.2346 Y125.3630
G01 X143.8413 Y125.5833
G01 X143.4319 Y125.7721
G01 X143.0090 Y125.9283
G01 X142.5752 Y126.0508
G01 X142.1331 Y126.1390
G01 X141.6854 Y126.1922
G01 X141.2350 Y126.2102
G01 X140.7845 Y126.1928
G01 X140.3367 Y126.1402
G01 X139.8945 Y126.0527
G01 X139.4605 Y125.9308
G01 X139.0374 Y125.7753
G01 X138.6277 Y125.5870
G01 X138.2341 Y125.3673
G01 X137.8589 Y125.1174
G01 X137.5045 Y124.8388
G01 X137.1729 Y124.5334
G01 X106.6951 Y94.0555
G01 X106.4036 Y93.7394
G01 X106.1366 Y93.4025
G01 X105.8955 Y93.0465
G01 X105.6816 Y92.6735
G01 X105.4962 Y92.2856
G01 X105.3402 Y91.8850
G01 X105.2146 Y91.4738
G01 X105.1201 Y91.0544
G01 X105.0571 Y90.6291
G01 X105.0261 Y90.2002
G01 X105.0272 Y89.7703
G01 X105.0604 Y89.3417
G01 X105.1255 Y88.9167
G01 X105.2221 Y88.4977
G01 X105.3497 Y88.0872
G01 X105.5077 Y87.6873
G01 X105.6951 Y87.3003
G01 X105.9108 Y86.9284
G01 X106.1537 Y86.5737
G01 X106.4224 Y86.2381
G01 Z-6.0000 F500
G01 X106.4892 Y86.1623 F800
G01 X106.5573 Y86.0877
G01 X106.6267 Y86.0143
G01 X106.6974 Y85.9421
G01 X137.1776 Y55.4619
G01 X137.5095 Y55.1570
G01 X137.8642 Y54.8789
G01 X138.2396 Y54.6296
G01 X138.6334 Y54.4104
G01 X139.0431 Y54.2227
G01 X139.4663 Y54.0677
G01 X139.9003 Y53.9463
G01 X140.3426 Y53.8593
G01 X140.7902 Y53.8072
G01 X141.2406 Y53.7903
G01 X141.6909 Y53.8088
G01 X142.1384 Y53.8625
G01 X142.5803 Y53.9511
G01 X143.0139 Y54.0740
G01 X143.4365 Y54.2305
G01 X143.8456 Y54.4196
G01 X144.2386 Y54.6403
G01 X144.6131 Y54.8910
G01 X144.9668 Y55.1703
G01 X145.2976 Y55.4764
G01 X145.6034 Y55.8075
G01 X145.8822 Y56.1616
G01 X146.1325 Y56.5364
G01 X146.3527 Y56.9297
G01 X146.5413 Y57.3390
G01 X146.6973 Y57.7618
G01 X146.8198 Y58.1955
G01 X146.9078 Y58.6375
G01 X146.9610 Y59.0851
G01 X146.9789 Y59.5354
G01 X146.9615 Y59.9858
G01 X146.9089 Y60.4334
G01 X146.8214 Y60.8755
G01 X146.6995 Y61.3094
G01 X146.5440 Y61.7324
G01 X146.3558 Y62.1419
G01 X146.1361 Y62.5354
G01 X145.8863 Y62.9106
G01 X145.6078 Y63.2649
G01 X145.3025 Y63.5964
G01 X118.8892 Y90.0000
G01 X145.3048 Y116.4059
G01 X145.6101 Y116.7376
G01 X145.8885 Y117.0923
G01 X146.1382 Y117.4676
G01 X146.3577 Y117.8613
G01 X146.5457 Y118.2711
G01 X146.7010 Y118.6943
G01 X146.8227 Y119.1284
G01 X146.9100 Y119.5706
G01 X146.9623 Y120.0184
G01 X146.9794 Y120.4689
G01 X146.9612 Y120.9193
G01 X146.9077 Y121.3670
G01 X146.8193 Y121.8090
G01 X146.6965 Y122.2428
G01 X146.5402 Y122.6656
G01 X146.3511 Y123.0749
G01 X146.1306 Y123.4681
G01 X145.8800 Y123.8428
G01 X145.6007 Y124.1967
G01 X145.2946 Y124.5276
G01 X144.9635 Y124.8335
G01 X144.6094 Y125.1126
G01 X144.2346 Y125.3630
G01 X143.8413 Y125.5833
G01 X143.4319 Y125.7721
G01 X143.0090 Y125.9283
G01 X142.5752 Y126.0508
G01 X142.1331 Y126.1390
G01 X141.6854 Y126.1922
G01 X141.2350 Y126.2102
G01 X140.7845 Y126.1928
G01 X140.3367 Y126.1402
G01 X139.8945 Y126.0527
G01 X139.4605 Y125.9308
G01 X139.0374 Y125.7753
G01 X138.6277 Y125.5870
G01 X138.2341 Y125.3673
G01 X137.8589 Y125.1174
G01 X137.5045 Y124.8388
G01 X137.1729 Y124.5334
G01 X106.6951 Y94.0555
G01 X106.4036 Y93.7394
G01 X106.1366 Y93.4025
G01 X105.8955 Y93.0465
G01 X105.6816 Y92.6735
G01 X105.4962 Y92.2856
G01 X105.3402 Y91.8850
G01 X105.2146 Y91.4738
G01 X105.1201 Y91.0544
G01 X105.0571 Y90.6291
G01 X105.0261 Y90.2002
G01 X105.0272 Y89.7703
G01 X105.0604 Y89.3417
G01 X105.1255 Y88.9167
G01 X105.2221 Y88.4977
G01 X105.3497 Y88.0872
G01 X105.5077 Y87.6873
G01 X105.6951 Y87.3003
G01 X105.9108 Y86.9284
G01 X106.1537 Y86.5737
G01 X106.4224 Y86.2381
G01 Z-9.0000 F500
G01 X106.4892 Y86.1623 F800
G01 X106.5573 Y86.0877
G01 X106.6267 Y86.0143
G01 X106.6974 Y85.9421
G01 X137.1776 Y55.4619
G01 X137.5095 Y55.1570
G01 X137.8642 Y54.8789
G01 X138.2396 Y54.6296
G01 X138.6334 Y54.4104
G01 X139.0431 Y54.2227
G01 X139.4663 Y54.0677
G01 X139.9003 Y53.9463
G01 X140.3426 Y53.8593
G01 X140.7902 Y53.8072
G01 X141.2406 Y53.7903
G01 X141.6909 Y53.8088
G01 X142.1384 Y53.8625
G01 X142.5803 Y53.9511
G01 X143.0139 Y54.0740
G01 X143.4365 Y54.2305
G01 X143.8456 Y54.4196
G01 X144.2386 Y54.6403
G01 X144.6131 Y54.8910
G01 X144.9668 Y55.1703
G01 X145.2976 Y55.4764
G01 X145.6034 Y55.8075
G01 X145.8822 Y56.1616
G01 X146.1325 Y56.5364
G01 X146.3527 Y56.9297
G01 X146.5413 Y57.3390
G01 X146.6973 Y57.7618
G01 X146.8198 Y58.1955
G01 X146.9078 Y58.6375
G01 X146.9610 Y59.0851
G01 X146.9789 Y59.5354
G01 X146.9615 Y59.9858
G01 X146.9089 Y60.4334
G01 X146.8214 Y60.8755
G01 X146.6995 Y61.3094
G01 X146.5440 Y61.7324
G01 X146.3558 Y62.1419
G01 X146.1361 Y62.5354
G01 X145.8863 Y62.9106
G01 X145.6078 Y63.2649
G01 X145.3025 Y63.5964
G01 X118.8892 Y90.0000
G01 X145.3048 Y116.4059
G01 X145.6101 Y116.7376
G01 X145.8885 Y117.0923
G01 X146.1382 Y117.4676
G01 X146.3577 Y117.8613
G01 X146.5457 Y118.2711
G01 X146.7010 Y118.6943
G01 X146.8227 Y119.1284
G01 X146.9100 Y119.5706
G01 X146.9623 Y120.0184
G01 X146.9794 Y120.4689
G01 X146.9612 Y120.9193
G01 X146.9077 Y121.3670
G01 X146.8193 Y121.8090
G01 X146.6965 Y122.2428
G01 X146.5402 Y122.6656
G01 X146.3511 Y123.0749
G01 X146.1306 Y123.4681
G01 X145.8800 Y123.8428
G01 X145.6007 Y124.1967
G01 X145.2946 Y124.5276
G01 X144.9635 Y124.8335
G01 X144.6094 Y125.1126
G01 X144.2346 Y125.3630
G01 X143.8413 Y125.5833
G01 X143.4319 Y125.7721
G01 X143.0090 Y125.9283
G01 X142.5752 Y126.0508
G01 X142.1331 Y126.1390
G01 X141.6854 Y126.1922
G01 X141.2350 Y126.2102
G01 X140.7845 Y126.1928
G01 X140.3367 Y126.1402
G01 X139.8945 Y126.0527
G01 X139.4605 Y125.9308
G01 X139.0374 Y125.7753
G01 X138.6277 Y125.5870
G01 X138.2341 Y125.3673
G01 X137.8589 Y125.1174
G01 X137.5045 Y124.8388
G01 X137.1729 Y124.5334
G01 X106.6951 Y94.0555
G01 X106.4036 Y93.7394
G01 X106.1366 Y93.4025
G01 X105.8955 Y93.0465
G01 X105.6816 Y92.6735
G01 X105.4962 Y92.2856
G01 X105.3402 Y91.8850
G01 X105.2146 Y91.4738
G01 X105.1201 Y91.0544
G01 X105.0571 Y90.6291
G01 X105.0261 Y90.2002
G01 X105.0272 Y89.7703
G01 X105.0604 Y89.3417
G01 X105.1255 Y88.9167
G01 X105.2221 Y88.4977
G01 X105.3497 Y88.0872
G01 X105.5077 Y87.6873
G01 X105.6951 Y87.3003
G01 X105.9108 Y86.9284
G01 X106.1537 Y86.5737
G01 X106.4224 Y86.2381
G01 Z-12.0000 F500
G01 X106.4892 Y86.1623 F800
G01 X106.5573 Y86.0877
G01 X106.6267 Y86.0143
G01 X106.6974 Y85.9421
G01 X137.1776 Y55.4619
G01 X137.5095 Y55.1570
G01 X137.8642 Y54.8789
G01 X138.2396 Y54.6296
G01 X138.6334 Y54.4104
G01 X139.0431 Y54.2227
G01 X139.4663 Y54.0677
G01 X139.9003 Y53.9463
G01 X140.3426 Y53.8593
G01 X140.7902 Y53.8072
G01 X141.2406 Y53.7903
G01 X141.6909 Y53.8088
G01 X142.1384 Y53.8625
G01 X142.5803 Y53.9511
G01 X143.0139 Y54.0740
G01 X143.4365 Y54.2305
G01 X143.8456 Y54.4196
G01 X144.2386 Y54.6403
G01 X144.6131 Y54.8910
G01 X144.9668 Y55.1703
G01 X145.2976 Y55.4764
G01 X145.6034 Y55.8075
G01 X145.8822 Y56.1616
G01 X146.1325 Y56.5364
G01 X146.3527 Y56.9297
G01 X146.5413 Y57.3390
G01 X146.6973 Y57.7618
G01 X146.8198 Y58.1955
G01 X146.9078 Y58.6375
G01 X146.9610 Y59.0851
G01 X146.9789 Y59.5354
G01 X146.9615 Y59.9858
G01 X146.9089 Y60.4334
G01 X146.8214 Y60.8755
G01 X146.6995 Y61.3094
G01 X146.5440 Y61.7324
G01 X146.3558 Y62.1419
G01 X146.1361 Y62.5354
G01 X145.8863 Y62.9106
G01 X145.6078 Y63.2649
G01 X145.3025 Y63.5964
G01 X118.8892 Y90.0000
G01 X145.3048 Y116.4059
G01 X145.6101 Y116.7376
G01 X145.8885 Y117.0923
G01 X146.1382 Y117.4676
G01 X146.3577 Y117.8613
G01 X146.5457 Y118.2711
G01 X146.7010 Y118.6943
G01 X146.8227 Y119.1284
G01 X146.9100 Y119.5706
G01 X146.9623 Y120.0184
G01 X146.9794 Y120.4689
G01 X146.9612 Y120.9193
G01 X146.9077 Y121.3670
G01 X146.8193 Y121.8090
G01 X146.6965 Y122.2428
G01 X146.5402 Y122.6656
G01 X146.3511 Y123.0749
G01 X146.1306 Y123.4681
G01 X145.8800 Y123.8428
G01 X145.6007 Y124.1967
G01 X145.2946 Y124.5276
G01 X144.9635 Y124.8335
G01 X144.6094 Y125.1126
G01 X144.2346 Y125.3630
G01 X143.8413 Y125.5833
G01 X143.4319 Y125.7721
G01 X143.0090 Y125.9283
G01 X142.5752 Y126.0508
G01 X142.1331 Y126.1390
G01 X141.6854 Y126.1922
G01 X141.2350 Y126.2102
G01 X140.7845 Y126.1928
G01 X140.3367 Y126.1402
G01 X139.8945 Y126.0527
G01 X139.4605 Y125.9308
G01 X139.0374 Y125.7753
G01 X138.6277 Y125.5870
G01 X138.2341 Y125.3673
G01 X137.8589 Y125.1174
G01 X137.5045 Y124.8388
G01 X137.1729 Y124.5334
G01 X106.6951 Y94.0555
G01 X106.4036 Y93.7394
G01 X106.1366 Y93.4025
G01 X105.8955 Y93.0465
G01 X105.6816 Y92.6735
G01 X105.4962 Y92.2856
G01 X105.3402 Y91.8850
G01 X105.2146 Y91.4738
G01 X105.1201 Y91.0544
G01 X105.0571 Y90.6291
G01 X105.0261 Y90.2002
G01 X105.0272 Y89.7703
G01 X105.0604 Y89.3417
G01 X105.1255 Y88.9167
G01 X105.2221 Y88.4977
G01 X105.3497 Y88.0872
G01 X105.5077 Y87.6873
G01 X105.6951 Y87.3003
G01 X105.9108 Y86.9284
G01 X106.1537 Y86.5737
G01 X106.4224 Y86.2381
G01 Z-15.0000 F500
G01 X106.4892 Y86.1623 F800
G01 X106.5573 Y86.0877
G01 X106.6267 Y86.0143
G01 X106.6974 Y85.9421
G01 X137.1776 Y55.4619
G01 X137.5095 Y55.1570
G01 X137.8642 Y54.8789
G01 X138.2396 Y54.6296
G01 X138.6334 Y54.4104
G01 X139.0431 Y54.2227
G01 X139.4663 Y54.0677
G01 X139.9003 Y53.9463
G01 X140.3426 Y53.8593
G01 X140.7902 Y53.8072
G01 X141.2406 Y53.7903
G01 X141.6909 Y53.8088
G01 X142.1384 Y53.8625
G01 X142.5803 Y53.9511
G01 X143.0139 Y54.0740
G01 X143.4365 Y54.2305
G01 X143.8456 Y54.4196
G01 X144.2386 Y54.6403
G01 X144.6131 Y54.8910
G01 X144.9668 Y55.1703
G01 X145.2976 Y55.4764
G01 X145.6034 Y55.8075
G01 X145.8822 Y56.1616
G01 X146.1325 Y56.5364
G01 X146.3527 Y56.9297
G01 X146.5413 Y57.3390
G01 X146.6973 Y57.7618
G01 X146.8198 Y58.1955
G01 X146.9078 Y58.6375
G01 X146.9610 Y59.0851
G01 X146.9789 Y59.5354
G01 X146.9615 Y59.9858
G01 X146.9089 Y60.4334
G01 X146.8214 Y60.8755
G01 X146.6995 Y61.3094
G01 X146.5440 Y61.7324
G01 X146.3558 Y62.1419
G01 X146.1361 Y62.5354
G01 X145.8863 Y62.9106
G01 X145.6078 Y63.2649
G01 X145.3025 Y63.5964
G01 X118.8892 Y90.0000
G01 X145.3048 Y116.4059
G01 X145.6101 Y116.7376
G01 X145.8885 Y117.0923
G01 X146.1382 Y117.4676
G01 X146.3577 Y117.8613
G01 X146.5457 Y118.2711
G01 X146.7010 Y118.6943
G01 X146.8227 Y119.1284
G01 X146.9100 Y119.5706
G01 X146.9623 Y120.0184
G01 X146.9794 Y120.4689
G01 X146.9612 Y120.9193
G01 X146.9077 Y121.3670
G01 X146.8193 Y121.8090
G01 X146.6965 Y122.2428
G01 X146.5402 Y122.6656
G01 X146.3511 Y123.0749
G01 X146.1306 Y123.4681
G01 X145.8800 Y123.8428
G01 X145.6007 Y124.1967
G01 X145.2946 Y124.5276
G01 X144.9635 Y124.8335
G01 X144.6094 Y125.1126
G01 X144.2346 Y125.3630
G01 X143.8413 Y125.5833
G01 X143.4319 Y125.7721
G01 X143.0090 Y125.9283
G01 X142.5752 Y126.0508
G01 X142.1331 Y126.1390
G01 X141.6854 Y126.1922
G01 X141.2350 Y126.2102
G01 X140.7845 Y126.1928
G01 X140.3367 Y126.1402
G01 X139.8945 Y126.0527
G01 X139.4605 Y125.9308
G01 X139.0374 Y125.7753
G01 X138.6277 Y125.5870
G01 X138.2341 Y125.3673
G01 X137.8589 Y125.1174
G01 X137.5045 Y124.8388
G01 X137.1729 Y124.5334
G01 X106.6951 Y94.0555
G01 X106.4036 Y93.7394
G01 X106.1366 Y93.4025
G01 X105.8955 Y93.0465
G01 X105.6816 Y92.6735
G01 X105.4962 Y92.2856
G01 X105.3402 Y91.8850
G01 X105.2146 Y91.4738
G01 X105.1201 Y91.0544
G01 X105.0571 Y90.6291
G01 X105.0261 Y90.2002
G01 X105.0272 Y89.7703
G01 X105.0604 Y89.3417
G01 X105.1255 Y88.9167
G01 X105.2221 Y88.4977
G01 X105.3497 Y88.0872
G01 X105.5077 Y87.6873
G01 X105.6951 Y87.3003
G01 X105.9108 Y86.9284
G01 X106.1537 Y86.5737
G01 X106.4224 Y86.2381
G01 Z-18.0000 F500
G01 X106.4892 Y86.1623 F800
G01 X106.5573 Y86.0877
G01 X106.6267 Y86.0143
G01 X106.6974 Y85.9421
G01 X137.1776 Y55.4619
G01 X137.5095 Y55.1570
G01 X137.8642 Y54.8789
G01 X138.2396 Y54.6296
G01 X138.6334 Y54.4104
G01 X139.0431 Y54.2227
G01 X139.4663 Y54.0677
G01 X139.9003 Y53.9463
G01 X140.3426 Y53.8593
G01 X140.7902 Y53.8072
G01 X141.2406 Y53.7903
G01 X141.6909 Y53.8088
G01 X142.1384 Y53.8625
G01 X142.5803 Y53.9511
G01 X143.0139 Y54.0740
G01 X143.4365 Y54.2305
G01 X143.8456 Y54.4196
G01 X144.2386 Y54.6403
G01 X144.6131 Y54.8910
G01 X144.9668 Y55.1703
G01 X145.2976 Y55.4764
G01 X145.6034 Y55.8075
G01 X145.8822 Y56.1616
G01 X146.1325 Y56.5364
G01 X146.3527 Y56.9297
G01 X146.5413 Y57.3390
G01 X146.6973 Y57.7618
G01 X146.8198 Y58.1955
G01 X146.9078 Y58.6375
G01 X146.9610 Y59.0851
G01 X146.9789 Y59.5354
G01 X146.9615 Y59.9858
G01 X146.9089 Y60.4334
G01 X146.8214 Y60.8755
G01 X146.6995 Y61.3094
G01 X146.5440 Y61.7324
G01 X146.3558 Y62.1419
G01 X146.1361 Y62.5354
G01 X145.8863 Y62.9106
G01 X145.6078 Y63.2649
G01 X145.3025 Y63.5964
G01 X118.8892 Y90.0000
G01 X145.3048 Y116.4059
G01 X145.6101 Y116.7376
G01 X145.8885 Y117.0923
G01 X146.1382 Y117.4676
G01 X146.3577 Y117.8613
G01 X146.5457 Y118.2711
G01 X146.7010 Y118.6943
G01 X146.8227 Y119.1284
G01 X146.9100 Y119.5706
G01 X146.9623 Y120.0184
G01 X146.9794 Y120.4689
G01 X146.9612 Y120.9193
G01 X146.9077 Y121.3670
G01 X146.8193 Y121.8090
G01 X146.6965 Y122.2428
G01 X146.5402 Y122.6656
G01 X146.3511 Y123.0749
G01 X146.1306 Y123.4681
G01 X145.8800 Y123.8428
G01 X145.6007 Y124.1967
G01 X145.2946 Y124.5276
G01 X144.9635 Y124.8335
G01 X144.6094 Y125.1126
G01 X144.2346 Y125.3630
G01 X143.8413 Y125.5833
G01 X143.4319 Y125.7721
G01 X143.0090 Y125.9283
G01 X142.5752 Y126.0508
G01 X142.1331 Y126.1390
G01 X141.6854 Y126.1922
G01 X141.2350 Y126.2102
G01 X140.7845 Y126.1928
G01 X140.3367 Y126.1402
G01 X139.8945 Y126.0527
G01 X139.4605 Y125.9308
G01 X139.0374 Y125.7753
G01 X138.6277 Y125.5870
G01 X138.2341 Y125.3673
G01 X137.8589 Y125.1174
G01 X137.5045 Y124.8388
G01 X137.1729 Y124.5334
G01 X106.6951 Y94.0555
G01 X106.4036 Y93.7394
G01 X106.1366 Y93.4025
G01 X105.8955 Y93.0465
G01 X105.6816 Y92.6735
G01 X105.4962 Y92.2856
G01 X105.3402 Y91.8850
G01 X105.2146 Y91.4738
G01 X105.1201 Y91.0544
G01 X105.0571 Y90.6291
G01 X105.0261 Y90.2002
G01 X105.0272 Y89.7703
G01 X105.0604 Y89.3417
G01 X105.1255 Y88.9167
G01 X105.2221 Y88.4977
G01 X105.3497 Y88.0872
G01 X105.5077 Y87.6873
G01 X105.6951 Y87.3003
G01 X105.9108 Y86.9284
G01 X106.1537 Y86.5737
G01 X106.4224 Y86.2381
G01 Z-18.5000 F500
G01 X106.4892 Y86.1623 F800
G01 X106.5573 Y86.0877
G01 X106.6267 Y86.0143
G01 X106.6974 Y85.9421
G01 X137.1776 Y55.4619
G01 X137.5095 Y55.1570
G01 X137.8642 Y54.8789
G01 X138.2396 Y54.6296
G01 X138.6334 Y54.4104
G01 X139.0431 Y54.2227
G01 X139.4663 Y54.0677
G01 X139.9003 Y53.9463
G01 X140.3426 Y53.8593
G01 X140.7902 Y53.8072
G01 X141.2406 Y53.7903
G01 X141.6909 Y53.8088
G01 X142.1384 Y53.8625
G01 X142.5803 Y53.9511
G01 X143.0139 Y54.0740
G01 X143.4365 Y54.2305
G01 X143.8456 Y54.4196
G01 X144.2386 Y54.6403
G01 X144.6131 Y54.8910
G01 X144.9668 Y55.1703
G01 X145.2976 Y55.4764
G01 X145.6034 Y55.8075
G01 X145.8822 Y56.1616
G01 X146.1325 Y56.5364
G01 X146.3527 Y56.9297
G01 X146.5413 Y57.3390
G01 X146.6973 Y57.7618
G01 X146.8198 Y58.1955
G01 X146.9078 Y58.6375
G01 X146.9610 Y59.0851
G01 X146.9789 Y59.5354
G01 X146.9615 Y59.9858
G01 X146.9089 Y60.4334
G01 X146.8214 Y60.8755
G01 X146.6995 Y61.3094
G01 X146.5440 Y61.7324
G01 X146.3558 Y62.1419
G01 X146.1361 Y62.5354
G01 X145.8863 Y62.9106
G01 X145.6078 Y63.2649
G01 X145.3025 Y63.5964
G01 X118.8892 Y90.0000
G01 X145.3048 Y116.4059
G01 X145.6101 Y116.7376
G01 X145.8885 Y117.0923
G01 X146.1382 Y117.4676
G01 X146.3577 Y117.8613
G01 X146.5457 Y118.2711
G01 X146.7010 Y118.6943
G01 X146.8227 Y119.1284
G01 X146.9100 Y119.5706
